assets/luts/cinematic.cube
# Cinematic Teal-Orange
# Generated by Sprint 16-C2 LUT preset generator. Cube size 17.
TITLE "Cinematic Teal-Orange"
LUT_3D_SIZE 9
DOMAIN_MIN 0.0 0.0 0.0
DOMAIN_MAX 1.0 1.0 1.0
0.000000 0.040000 0.100000
0.000000 0.038831 0.097077
0.139728 0.036386 0.090965
0.288368 0.033941 0.084852
0.437008 0.031496 0.078740
0.585648 0.029051 0.072628
0.734288 0.026606 0.066515
0.882927 0.024161 0.060403
0.954016 0.022992 0.057480
0.000000 0.104816 0.090166
0.000000 0.103647 0.087243
0.147596 0.101202 0.081130
0.296235 0.098757 0.075018
0.444875 0.096312 0.068906
0.593515 0.093868 0.062794
0.742155 0.091423 0.056681
0.890795 0.088978 0.050569
0.961883 0.087808 0.047646
0.000000 0.240342 0.069604
0.015405 0.239172 0.066681
0.164045 0.236727 0.060569
0.312685 0.234283 0.054456
0.461325 0.231838 0.048344
0.609965 0.229393 0.042232
0.758604 0.226948 0.036119
0.907244 0.224503 0.030007
0.978333 0.223334 0.027084
0.000000 0.375867 0.049042
0.031855 0.374698 0.046119
0.180495 0.372253 0.040006
0.329135 0.369808 0.033894
0.477774 0.367363 0.027782
0.626414 0.364918 0.021670
0.775054 0.362473 0.015558
0.923694 0.360028 0.009445
0.994782 0.358859 0.006522
0.000000 0.511392 0.028480
0.048305 0.510223 0.025557
0.196944 0.507778 0.019444
0.345584 0.505333 0.013332
0.494224 0.502888 0.007220
0.642864 0.500443 0.001108
0.792504 0.502002 0.000000
0.942367 0.504447 0.000000
1.000000 0.505616 0.000000
0.000000 0.646917 0.007918
0.064754 0.645748 0.004995
0.213618 0.644197 0.000000
0.363480 0.646642 0.000000
0.513342 0.649087 0.000000
0.663204 0.651532 0.000000
0.813067 0.653977 0.000000
0.962929 0.656421 0.000000
1.000000 0.657591 0.000000
0.012644 0.792558 0.000000
0.084317 0.793727 0.000000
0.234180 0.796172 0.000000
0.384042 0.798617 0.000000
0.533904 0.801062 0.000000
0.683766 0.803507 0.000000
0.833628 0.805951 0.000000
0.983491 0.808396 0.000000
1.000000 0.809566 0.000000
0.033206 0.944532 0.000000
0.104879 0.945702 0.000000
0.254742 0.948147 0.000000
0.404604 0.950591 0.000000
0.554466 0.953036 0.000000
0.704328 0.955481 0.000000
0.854190 0.957926 0.000000
1.000000 0.960371 0.000000
1.000000 0.961540 0.000000
0.043040 1.000000 0.000000
0.114713 1.000000 0.000000
0.264576 1.000000 0.000000
0.414438 1.000000 0.000000
0.564300 1.000000 0.000000
0.714162 1.000000 0.000000
0.864024 1.000000 0.000000
1.000000 1.000000 0.000000
1.000000 1.000000 0.000000
0.000000 0.039603 0.167757
0.000000 0.038434 0.164834
0.140523 0.035989 0.158722
0.289162 0.033544 0.152610
0.437802 0.031099 0.146497
0.586442 0.028654 0.140385
0.735082 0.026209 0.134273
0.883722 0.023764 0.128161
0.954810 0.022595 0.125237
0.000000 0.104419 0.157923
0.000000 0.103250 0.155000
0.148390 0.100805 0.148888
0.297030 0.098360 0.142776
0.445669 0.095915 0.136663
0.594309 0.093470 0.130551
0.742949 0.091026 0.124439
0.891589 0.088581 0.118327
0.962677 0.087411 0.115403
0.000000 0.239945 0.137361
0.016200 0.238775 0.134438
0.164839 0.236330 0.128326
0.313479 0.233885 0.122214
0.462119 0.231441 0.116101
0.610759 0.228996 0.109989
0.759399 0.226551 0.103877
0.908038 0.224106 0.097765
0.979127 0.222937 0.094841
0.000000 0.375470 0.116799
0.032649 0.374300 0.113876
0.181289 0.371856 0.107764
0.329929 0.369411 0.101652
0.478569 0.366966 0.095539
0.627208 0.364521 0.089427
0.775848 0.362076 0.083315
0.924488 0.359631 0.077203
0.995577 0.358462 0.074279
0.000000 0.510995 0.096237
0.049099 0.509826 0.093314
0.197739 0.507381 0.087202
0.346378 0.504936 0.081090
0.495018 0.502491 0.074977
0.643658 0.500046 0.068865
0.793497 0.502399 0.063952
0.943359 0.504844 0.059062
1.000000 0.506013 0.056724
0.000000 0.646520 0.075675
0.065548 0.645351 0.072752
0.214610 0.644594 0.067062
0.364473 0.647039 0.062172
0.514335 0.649484 0.057282
0.664197 0.651929 0.052392
0.814059 0.654374 0.047503
0.963921 0.656819 0.042613
1.000000 0.657988 0.040274
0.013637 0.792955 0.057841
0.085310 0.794124 0.055502
0.235172 0.796569 0.050612
0.385035 0.799014 0.045722
0.534897 0.801459 0.040833
0.684759 0.803904 0.035943
0.834621 0.806349 0.031053
0.984483 0.808793 0.026163
1.000000 0.809963 0.023825
0.034199 0.944929 0.041391
0.105872 0.946099 0.039052
0.255734 0.948544 0.034163
0.405597 0.950989 0.029273
0.555459 0.953433 0.024383
0.705321 0.955878 0.019493
0.855183 0.958323 0.014603
1.000000 0.960768 0.009714
1.000000 0.961937 0.007375
0.044033 1.000000 0.033524
0.115706 1.000000 0.031185
0.265568 1.000000 0.026295
0.415431 1.000000 0.021406
0.565293 1.000000 0.016516
0.715155 1.000000 0.011626
0.865017 1.000000 0.006736
1.000000 1.000000 0.001846
1.000000 1.000000 0.000000
0.000000 0.038773 0.309432
0.000000 0.037603 0.306508
0.142183 0.035158 0.300396
0.290823 0.032713 0.294284
0.439463 0.030269 0.288172
0.588103 0.027824 0.282059
0.736742 0.025379 0.275947
0.885382 0.022934 0.269835
0.956471 0.021765 0.266912
0.000000 0.103589 0.299598
0.001411 0.102420 0.296674
0.150050 0.099975 0.290562
0.298690 0.097530 0.284450
0.447330 0.095085 0.278338
0.595970 0.092640 0.272225
0.744610 0.090195 0.266113
0.893249 0.087750 0.260001
0.964338 0.086581 0.257078
0.000000 0.239114 0.279035
0.017860 0.237945 0.276112
0.166500 0.235500 0.270000
0.315140 0.233055 0.263888
0.463780 0.230610 0.257776
0.612419 0.228165 0.251663
0.761059 0.225720 0.245551
0.909699 0.223276 0.239439
0.980788 0.222106 0.236516
0.000000 0.374639 0.258474
0.034310 0.373470 0.255550
0.182950 0.371025 0.249438
0.331589 0.368580 0.243326
0.480229 0.366135 0.237214
0.628869 0.363691 0.231101
0.777509 0.361246 0.224989
0.926149 0.358801 0.218877
0.997237 0.357631 0.215954
0.000000 0.510165 0.237912
0.050759 0.508995 0.234988
0.199399 0.506550 0.228876
0.348039 0.504105 0.222764
0.496679 0.501661 0.216652
0.645711 0.500784 0.210931
0.795573 0.503229 0.206042
0.945435 0.505674 0.201152
1.000000 0.506843 0.198813
0.000000 0.645690 0.217350
0.067209 0.644521 0.214426
0.216686 0.645424 0.209151
0.366548 0.647869 0.204261
0.516410 0.650314 0.199372
0.666273 0.652759 0.194482
0.816135 0.655204 0.189592
0.965997 0.657649 0.184702
1.000000 0.658818 0.182364
0.015712 0.793785 0.199930
0.087386 0.794954 0.197591
0.237248 0.797399 0.192702
0.387110 0.799844 0.187812
0.536972 0.802289 0.182922
0.686835 0.804734 0.178032
0.836697 0.807179 0.173142
0.986559 0.809624 0.168253
1.000000 0.810793 0.165914
0.036274 0.945760 0.183480
0.107948 0.946929 0.181142
0.257810 0.949374 0.176252
0.407672 0.951819 0.171362
0.557535 0.954264 0.166472
0.707397 0.956709 0.161583
0.857259 0.959154 0.156693
1.000000 0.961598 0.151803
1.000000 0.962768 0.149464
0.046108 1.000000 0.175613
0.117782 1.000000 0.173275
0.267644 1.000000 0.168385
0.417506 1.000000 0.163495
0.567368 1.000000 0.158605
0.717231 1.000000 0.153715
0.867093 1.000000 0.148826
1.000000 1.000000 0.143936
1.000000 1.000000 0.141597
0.000000 0.037942 0.451106
0.000000 0.036773 0.448183
0.143844 0.034328 0.442070
0.292484 0.031883 0.435958
0.441123 0.029438 0.429846
0.589763 0.026993 0.423733
0.738403 0.024549 0.417621
0.887043 0.022104 0.411509
0.958131 0.020934 0.408586
0.000000 0.102759 0.441272
0.003071 0.101589 0.438349
0.151711 0.099145 0.432236
0.300351 0.096700 0.426124
0.448991 0.094255 0.420012
0.597630 0.091810 0.413900
0.746270 0.089365 0.407787
0.894910 0.086920 0.401675
0.965999 0.085751 0.398752
0.000000 0.238284 0.420710
0.019521 0.237115 0.417787
0.168161 0.234670 0.411674
0.316800 0.232225 0.405562
0.465440 0.229780 0.399450
0.614080 0.227335 0.393338
0.762720 0.224890 0.387225
0.911360 0.222445 0.381113
0.982448 0.221276 0.378190
0.000000 0.373809 0.400148
0.035970 0.372640 0.397225
0.184610 0.370195 0.391112
0.333250 0.367750 0.385000
0.481890 0.365305 0.378888
0.630530 0.362860 0.372775
0.779169 0.360415 0.366663
0.927809 0.357970 0.360551
0.998898 0.356801 0.357628
0.000000 0.509334 0.379586
0.052420 0.508165 0.376663
0.201060 0.505720 0.370550
0.349700 0.503275 0.364438
0.498339 0.500830 0.358326
0.647787 0.501615 0.353021
0.797649 0.504059 0.348131
0.947511 0.506504 0.343241
1.000000 0.507674 0.340903
0.000000 0.644860 0.359024
0.068900 0.643810 0.356130
0.218762 0.646255 0.351241
0.368624 0.648700 0.346351
0.518486 0.651145 0.341461
0.668349 0.653589 0.336571
0.818211 0.656034 0.331681
0.968073 0.658479 0.326792
1.000000 0.659649 0.324453
0.017788 0.794615 0.342019
0.089462 0.795785 0.339681
0.239324 0.798229 0.334791
0.389186 0.800674 0.329901
0.539048 0.803119 0.325011
0.688911 0.805564 0.320122
0.838773 0.808009 0.315232
0.988635 0.810454 0.310342
1.000000 0.811623 0.308003
0.038350 0.946590 0.325570
0.110024 0.947759 0.323231
0.259886 0.950204 0.318341
0.409748 0.952649 0.313452
0.559610 0.955094 0.308562
0.709473 0.957539 0.303672
0.859335 0.959984 0.298782
1.000000 0.962429 0.293892
1.000000 0.963598 0.291554
0.048184 1.000000 0.317703
0.119858 1.000000 0.315364
0.269720 1.000000 0.310474
0.419582 1.000000 0.305584
0.569444 1.000000 0.300695
0.719307 1.000000 0.295805
0.869169 1.000000 0.290915
1.000000 1.000000 0.286025
1.000000 1.000000 0.283687
0.000000 0.037112 0.592780
0.000000 0.035943 0.589857
0.145504 0.033498 0.583744
0.294144 0.031053 0.577632
0.442784 0.028608 0.571520
0.591424 0.026163 0.565408
0.740064 0.023718 0.559295
0.888703 0.021273 0.553183
0.959792 0.020104 0.550260
0.000000 0.101928 0.582946
0.004732 0.100759 0.580023
0.153372 0.098314 0.573910
0.302011 0.095869 0.567798
0.450651 0.093424 0.561686
0.599291 0.090980 0.555574
0.747931 0.088535 0.549462
0.896571 0.086090 0.543349
0.967659 0.084920 0.540426
0.000000 0.237454 0.562384
0.021181 0.236284 0.559461
0.169821 0.233839 0.553349
0.318461 0.231395 0.547236
0.467101 0.228950 0.541124
0.615741 0.226505 0.535012
0.764380 0.224060 0.528899
0.913020 0.221615 0.522787
0.984109 0.220446 0.519864
0.000000 0.372979 0.541822
0.037631 0.371810 0.538899
0.186271 0.369365 0.532786
0.334911 0.366920 0.526674
0.483550 0.364475 0.520562
0.632190 0.362030 0.514450
0.780830 0.359585 0.508337
0.929470 0.357140 0.502225
1.000000 0.356529 0.499442
0.000000 0.508504 0.521260
0.054081 0.507335 0.518337
0.202720 0.504890 0.512224
0.351360 0.502445 0.506112
0.500000 0.500000 0.500000
0.649862 0.502445 0.495110
0.799724 0.504890 0.490220
0.949587 0.507335 0.485331
1.000000 0.508504 0.482992
0.000000 0.644029 0.500698
0.070975 0.644640 0.498220
0.220838 0.647085 0.493330
0.370700 0.649530 0.488440
0.520562 0.651975 0.483550
0.670424 0.654420 0.478661
0.820287 0.656865 0.473771
0.970149 0.659309 0.468881
1.000000 0.660479 0.466542
0.019864 0.795446 0.484109
0.091537 0.796615 0.481770
0.241400 0.799060 0.476880
0.391262 0.801505 0.471991
0.541124 0.803950 0.467101
0.690986 0.806395 0.462211
0.840848 0.808839 0.457321
0.990711 0.811284 0.452431
1.000000 0.812454 0.450093
0.040426 0.947420 0.467659
0.112099 0.948590 0.465321
0.261962 0.951035 0.460431
0.411824 0.953479 0.455541
0.561686 0.955924 0.450651
0.711548 0.958369 0.445761
0.861410 0.960814 0.440872
1.000000 0.963259 0.435982
1.000000 0.964428 0.433643
0.050260 1.000000 0.459792
0.121933 1.000000 0.457453
0.271796 1.000000 0.452564
0.421658 1.000000 0.447674
0.571520 1.000000 0.442784
0.721382 1.000000 0.437894
0.871244 1.000000 0.433004
1.000000 1.000000 0.428115
1.000000 1.000000 0.425776
0.000000 0.036282 0.734454
0.000000 0.035112 0.731531
0.147165 0.032668 0.725419
0.295805 0.030223 0.719307
0.444445 0.027778 0.713194
0.593084 0.025333 0.707082
0.741724 0.022888 0.700970
0.890364 0.020443 0.694858
0.961453 0.019274 0.691934
0.000000 0.101098 0.724620
0.006392 0.099929 0.721697
0.155032 0.097484 0.715585
0.303672 0.095039 0.709473
0.452312 0.092594 0.703360
0.600952 0.090149 0.697248
0.749591 0.087704 0.691136
0.898231 0.085259 0.685024
0.969320 0.084090 0.682100
0.000000 0.236623 0.704058
0.022842 0.235454 0.701135
0.171482 0.233009 0.695023
0.320122 0.230564 0.688910
0.468761 0.228119 0.682798
0.617401 0.225674 0.676686
0.766041 0.223230 0.670574
0.914681 0.220785 0.664462
0.985769 0.219615 0.661538
0.000000 0.372148 0.683496
0.039292 0.370979 0.680573
0.187931 0.368534 0.674461
0.336571 0.366089 0.668349
0.485211 0.363644 0.662236
0.633851 0.361200 0.656124
0.782491 0.358755 0.650012
0.931130 0.356310 0.643900
1.000000 0.357359 0.641531
0.000000 0.507674 0.662934
0.055741 0.506504 0.660011
0.204381 0.504059 0.653899
0.353021 0.501615 0.647787
0.502076 0.500830 0.642089
0.651938 0.503275 0.637200
0.801800 0.505720 0.632310
0.951662 0.508165 0.627420
1.000000 0.509334 0.625081
0.001378 0.644301 0.642648
0.073051 0.645470 0.640309
0.222913 0.647915 0.635419
0.372775 0.650360 0.630530
0.522638 0.652805 0.625640
0.672500 0.655250 0.620750
0.822362 0.657695 0.615860
0.972224 0.660140 0.610970
1.000000 0.661309 0.608632
0.021940 0.796276 0.626198
0.093613 0.797445 0.623860
0.243475 0.799890 0.618970
0.393338 0.802335 0.614080
0.543200 0.804780 0.609190
0.693062 0.807225 0.604300
0.842924 0.809670 0.599411
0.992786 0.812115 0.594521
1.000000 0.813284 0.592182
0.042502 0.948251 0.609749
0.114175 0.949420 0.607410
0.264037 0.951865 0.602520
0.413899 0.954310 0.597630
0.563762 0.956755 0.592741
0.713624 0.959200 0.587851
0.863486 0.961644 0.582961
1.000000 0.964089 0.578071
1.000000 0.965259 0.575733
0.052336 1.000000 0.601881
0.124009 1.000000 0.599543
0.273871 1.000000 0.594653
0.423733 1.000000 0.589763
0.573596 1.000000 0.584873
0.723458 1.000000 0.579984
0.873320 1.000000 0.575094
1.000000 1.000000 0.570204
1.000000 1.000000 0.567865
0.000000 0.035451 0.876128
0.000186 0.034282 0.873205
0.148826 0.031837 0.867093
0.297465 0.029392 0.860981
0.446105 0.026947 0.854869
0.594745 0.024502 0.848756
0.743385 0.022058 0.842644
0.892025 0.019613 0.836532
0.963113 0.018443 0.833608
0.000000 0.100268 0.866294
0.008053 0.099099 0.863371
0.156693 0.096654 0.857259
0.305333 0.094209 0.851147
0.453972 0.091764 0.845035
0.602612 0.089319 0.838922
0.751252 0.086874 0.832810
0.899892 0.084429 0.826698
0.970980 0.083260 0.823774
0.000000 0.235793 0.845732
0.024503 0.234624 0.842809
0.173142 0.232179 0.836697
0.321782 0.229734 0.830585
0.470422 0.227289 0.824472
0.619062 0.224844 0.818360
0.767702 0.222399 0.812248
0.916341 0.219954 0.806136
0.987430 0.218785 0.803212
0.000000 0.371318 0.825171
0.040952 0.370149 0.822247
0.189592 0.367704 0.816135
0.338232 0.365259 0.810023
0.486872 0.362814 0.803910
0.635511 0.360369 0.797798
0.784151 0.357924 0.791686
0.933176 0.357021 0.785959
1.000000 0.358190 0.783620
0.000000 0.506843 0.804608
0.057402 0.505674 0.801685
0.206042 0.503229 0.795573
0.354681 0.500784 0.789461
0.504151 0.501661 0.784179
0.654014 0.504105 0.779289
0.803876 0.506550 0.774399
0.953738 0.508995 0.769509
1.000000 0.510165 0.767171
0.003453 0.645131 0.784737
0.075127 0.646301 0.782399
0.224989 0.648746 0.777509
0.374851 0.651191 0.772619
0.524714 0.653635 0.767729
0.674576 0.656080 0.762839
0.824438 0.658525 0.757950
0.974300 0.660970 0.753060
1.000000 0.662139 0.750721
0.024015 0.797106 0.768288
0.095689 0.798276 0.765949
0.245551 0.800720 0.761059
0.395413 0.803165 0.756169
0.545276 0.805610 0.751280
0.695138 0.808055 0.746390
0.845000 0.810500 0.741500
0.994862 0.812945 0.736610
1.000000 0.814114 0.734272
0.044577 0.949081 0.751838
0.116251 0.950250 0.749499
0.266113 0.952695 0.744610
0.415975 0.955140 0.739720
0.565837 0.957585 0.734830
0.715700 0.960030 0.729940
0.865562 0.962475 0.725050
1.000000 0.964920 0.720161
1.000000 0.966089 0.717822
0.054411 1.000000 0.743971
0.126085 1.000000 0.741632
0.275947 1.000000 0.736742
0.425809 1.000000 0.731853
0.575672 1.000000 0.726963
0.725534 1.000000 0.722073
0.875396 1.000000 0.717183
1.000000 1.000000 0.712293
1.000000 1.000000 0.709955
0.000000 0.034621 1.000000
0.001846 0.033452 1.000000
0.150486 0.031007 1.000000
0.299126 0.028562 1.000000
0.447766 0.026117 0.996543
0.596406 0.023672 0.990430
0.745045 0.021227 0.984318
0.893685 0.018782 0.978206
0.964774 0.017613 0.975283
0.000000 0.099438 1.000000
0.009714 0.098268 1.000000
0.158353 0.095823 0.998933
0.306993 0.093378 0.992821
0.455633 0.090934 0.986709
0.604273 0.088489 0.980596
0.752913 0.086044 0.974484
0.901552 0.083599 0.968372
0.972641 0.082430 0.965449
0.000000 0.234963 0.987407
0.026163 0.233793 0.984483
0.174803 0.231349 0.978371
0.323443 0.228904 0.972259
0.472083 0.226459 0.966147
0.620722 0.224014 0.960034
0.769362 0.221569 0.953922
0.918002 0.219124 0.947810
0.989091 0.217955 0.944887
0.000000 0.370488 0.966845
0.042613 0.369319 0.963921
0.191253 0.366874 0.957809
0.339892 0.364429 0.951697
0.488532 0.361984 0.945585
0.637172 0.359539 0.939472
0.785812 0.357094 0.933360
0.935252 0.357851 0.928048
1.000000 0.359020 0.925710
0.000000 0.506013 0.946283
0.059062 0.504844 0.943359
0.207702 0.502399 0.937247
0.356365 0.500046 0.931158
0.506227 0.502491 0.926268
0.656089 0.504936 0.921378
0.805952 0.507381 0.916489
0.955814 0.509826 0.911599
1.000000 0.510995 0.909260
0.005529 0.645962 0.926827
0.077203 0.647131 0.924488
0.227065 0.649576 0.919598
0.376927 0.652021 0.914708
0.526789 0.654466 0.909819
0.676652 0.656911 0.904929
0.826514 0.659356 0.900039
0.976376 0.661800 0.895149
1.000000 0.662970 0.892811
0.026091 0.797936 0.910377
0.097765 0.799106 0.908038
0.247627 0.801551 0.903149
0.397489 0.803996 0.898259
0.547351 0.806441 0.893369
0.697214 0.808885 0.888479
0.847076 0.811330 0.883589
0.996938 0.813775 0.878700
1.000000 0.814944 0.876361
0.046653 0.949911 0.893927
0.118327 0.951081 0.891589
0.268189 0.953525 0.886699
0.418051 0.955970 0.881809
0.567913 0.958415 0.876919
0.717776 0.960860 0.872030
0.867638 0.963305 0.867140
1.000000 0.965750 0.862250
1.000000 0.966919 0.859911
0.056487 1.000000 0.886060
0.128161 1.000000 0.883722
0.278023 1.000000 0.878832
0.427885 1.000000 0.873942
0.577747 1.000000 0.869052
0.727610 1.000000 0.864162
0.877472 1.000000 0.859273
1.000000 1.000000 0.854383
1.000000 1.000000 0.852044
0.000000 0.034224 1.000000
0.002641 0.033055 1.000000
0.151280 0.030610 1.000000
0.299920 0.028165 1.000000
0.448560 0.025720 1.000000
0.597200 0.023275 1.000000
0.745840 0.020830 1.000000
0.894479 0.018385 1.000000
0.965568 0.017216 1.000000
0.000000 0.099040 1.000000
0.010508 0.097871 1.000000
0.159148 0.095426 1.000000
0.307787 0.092981 1.000000
0.456427 0.090536 1.000000
0.605067 0.088092 1.000000
0.753707 0.085647 1.000000
0.902347 0.083202 1.000000
0.973435 0.082032 1.000000
0.000000 0.234566 1.000000
0.026957 0.233396 1.000000
0.175597 0.230951 1.000000
0.324237 0.228507 1.000000
0.472877 0.226062 1.000000
0.621517 0.223617 1.000000
0.770156 0.221172 1.000000
0.918796 0.218727 1.000000
0.989885 0.217558 1.000000
0.000000 0.370091 1.000000
0.043407 0.368922 1.000000
0.192047 0.366477 1.000000
0.340687 0.364032 1.000000
0.489326 0.361587 1.000000
0.637966 0.359142 1.000000
0.786606 0.356697 1.000000
0.936245 0.358248 0.996004
1.000000 0.359417 0.993666
0.000000 0.505616 1.000000
0.059857 0.504447 1.000000
0.208496 0.502002 1.000000
0.357358 0.500443 0.999114
0.507220 0.502888 0.994224
0.657082 0.505333 0.989334
0.806944 0.507778 0.984444
0.956807 0.510223 0.979555
1.000000 0.511392 0.977216
0.006522 0.646359 0.994782
0.078195 0.647528 0.992444
0.228058 0.649973 0.987554
0.377920 0.652418 0.982664
0.527782 0.654863 0.977774
0.677644 0.657308 0.972885
0.827507 0.659753 0.967995
0.977369 0.662197 0.963105
1.000000 0.663367 0.960766
0.027084 0.798334 0.978333
0.098757 0.799503 0.975994
0.248620 0.801948 0.971104
0.398482 0.804393 0.966215
0.548344 0.806838 0.961325
0.698206 0.809283 0.956435
0.848069 0.811727 0.951545
0.997931 0.814172 0.946655
1.000000 0.815342 0.944317
0.047646 0.950308 0.961883
0.119319 0.951478 0.959545
0.269182 0.953923 0.954655
0.419044 0.956367 0.949765
0.568906 0.958812 0.944875
0.718768 0.961257 0.939985
0.868630 0.963702 0.935096
1.000000 0.966147 0.930206
1.000000 0.967316 0.927867
0.057480 1.000000 0.954016
0.129153 1.000000 0.951677
0.279016 1.000000 0.946788
0.428878 1.000000 0.941898
0.578740 1.000000 0.937008
0.728602 1.000000 0.932118
0.878464 1.000000 0.927228
1.000000 1.000000 0.922339
1.000000 1.000000 0.920000
