assets/luts/cinematic.cube
# Cinematic Teal-Orange
# Generated by Sprint 16-C2 LUT preset generator. Cube size 17.
TITLE "Cinematic Teal-Orange"
LUT_3D_SIZE 5
DOMAIN_MIN 0.0 0.0 0.0
DOMAIN_MAX 1.0 1.0 1.0
0.000000 0.040000 0.100000
0.139728 0.036386 0.090965
0.437008 0.031496 0.078740
0.734288 0.026606 0.066515
0.954016 0.022992 0.057480
0.000000 0.240342 0.069604
0.164045 0.236727 0.060569
0.461325 0.231838 0.048344
0.758604 0.226948 0.036119
0.978333 0.223334 0.027084
0.000000 0.511392 0.028480
0.196944 0.507778 0.019444
0.494224 0.502888 0.007220
0.792504 0.502002 0.000000
1.000000 0.505616 0.000000
0.012644 0.792558 0.000000
0.234180 0.796172 0.000000
0.533904 0.801062 0.000000
0.833628 0.805951 0.000000
1.000000 0.809566 0.000000
0.043040 1.000000 0.000000
0.264576 1.000000 0.000000
0.564300 1.000000 0.000000
0.864024 1.000000 0.000000
1.000000 1.000000 0.000000
0.000000 0.038773 0.309432
0.142183 0.035158 0.300396
0.439463 0.030269 0.288172
0.736742 0.025379 0.275947
0.956471 0.021765 0.266912
0.000000 0.239114 0.279035
0.166500 0.235500 0.270000
0.463780 0.230610 0.257776
0.761059 0.225720 0.245551
0.980788 0.222106 0.236516
0.000000 0.510165 0.237912
0.199399 0.506550 0.228876
0.496679 0.501661 0.216652
0.795573 0.503229 0.206042
1.000000 0.506843 0.198813
0.015712 0.793785 0.199930
0.237248 0.797399 0.192702
0.536972 0.802289 0.182922
0.836697 0.807179 0.173142
1.000000 0.810793 0.165914
0.046108 1.000000 0.175613
0.267644 1.000000 0.168385
0.567368 1.000000 0.158605
0.867093 1.000000 0.148826
1.000000 1.000000 0.141597
0.000000 0.037112 0.592780
0.145504 0.033498 0.583744
0.442784 0.028608 0.571520
0.740064 0.023718 0.559295
0.959792 0.020104 0.550260
0.000000 0.237454 0.562384
0.169821 0.233839 0.553349
0.467101 0.228950 0.541124
0.764380 0.224060 0.528899
0.984109 0.220446 0.519864
0.000000 0.508504 0.521260
0.202720 0.504890 0.512224
0.500000 0.500000 0.500000
0.799724 0.504890 0.490220
1.000000 0.508504 0.482992
0.019864 0.795446 0.484109
0.241400 0.799060 0.476880
0.541124 0.803950 0.467101
0.840848 0.808839 0.457321
1.000000 0.812454 0.450093
0.050260 1.000000 0.459792
0.271796 1.000000 0.452564
0.571520 1.000000 0.442784
0.871244 1.000000 0.433004
1.000000 1.000000 0.425776
0.000000 0.035451 0.876128
0.148826 0.031837 0.867093
0.446105 0.026947 0.854869
0.743385 0.022058 0.842644
0.963113 0.018443 0.833608
0.000000 0.235793 0.845732
0.173142 0.232179 0.836697
0.470422 0.227289 0.824472
0.767702 0.222399 0.812248
0.987430 0.218785 0.803212
0.000000 0.506843 0.804608
0.206042 0.503229 0.795573
0.504151 0.501661 0.784179
0.803876 0.506550 0.774399
1.000000 0.510165 0.767171
0.024015 0.797106 0.768288
0.245551 0.800720 0.761059
0.545276 0.805610 0.751280
0.845000 0.810500 0.741500
1.000000 0.814114 0.734272
0.054411 1.000000 0.743971
0.275947 1.000000 0.736742
0.575672 1.000000 0.726963
0.875396 1.000000 0.717183
1.000000 1.000000 0.709955
0.000000 0.034224 1.000000
0.151280 0.030610 1.000000
0.448560 0.025720 1.000000
0.745840 0.020830 1.000000
0.965568 0.017216 1.000000
0.000000 0.234566 1.000000
0.175597 0.230951 1.000000
0.472877 0.226062 1.000000
0.770156 0.221172 1.000000
0.989885 0.217558 1.000000
0.000000 0.505616 1.000000
0.208496 0.502002 1.000000
0.507220 0.502888 0.994224
0.806944 0.507778 0.984444
1.000000 0.511392 0.977216
0.027084 0.798334 0.978333
0.248620 0.801948 0.971104
0.548344 0.806838 0.961325
0.848069 0.811727 0.951545
1.000000 0.815342 0.944317
0.057480 1.000000 0.954016
0.279016 1.000000 0.946788
0.578740 1.000000 0.937008
0.878464 1.000000 0.927228
1.000000 1.000000 0.920000
