assets/luts/cinematic.cube
# Cinematic Teal-Orange
# Generated by Sprint 16-C2 LUT preset generator. Cube size 17.
TITLE "Cinematic Teal-Orange"
LUT_3D_SIZE 17
DOMAIN_MIN 0.0 0.0 0.0
DOMAIN_MAX 1.0 1.0 1.0
0.000000 0.040000 0.100000
0.000000 0.040000 0.100000
0.000000 0.038831 0.097077
0.065408 0.037608 0.094021
0.139728 0.036386 0.090965
0.214048 0.035163 0.087908
0.288368 0.033941 0.084852
0.362688 0.032718 0.081796
0.437008 0.031496 0.078740
0.511328 0.030274 0.075684
0.585648 0.029051 0.072628
0.659968 0.027829 0.069572
0.734288 0.026606 0.066515
0.808608 0.025384 0.063459
0.882927 0.024161 0.060403
0.954016 0.022992 0.057480
0.954016 0.022992 0.057480
0.000000 0.040000 0.100000
0.000000 0.040000 0.100000
0.000000 0.038831 0.097077
0.065408 0.037608 0.094021
0.139728 0.036386 0.090965
0.214048 0.035163 0.087908
0.288368 0.033941 0.084852
0.362688 0.032718 0.081796
0.437008 0.031496 0.078740
0.511328 0.030274 0.075684
0.585648 0.029051 0.072628
0.659968 0.027829 0.069572
0.734288 0.026606 0.066515
0.808608 0.025384 0.063459
0.882927 0.024161 0.060403
0.954016 0.022992 0.057480
0.954016 0.022992 0.057480
0.000000 0.104816 0.090166
0.000000 0.104816 0.090166
0.000000 0.103647 0.087243
0.073276 0.102425 0.084187
0.147596 0.101202 0.081130
0.221916 0.099980 0.078074
0.296235 0.098757 0.075018
0.370555 0.097535 0.071962
0.444875 0.096312 0.068906
0.519195 0.095090 0.065850
0.593515 0.093868 0.062794
0.667835 0.092645 0.059738
0.742155 0.091423 0.056681
0.816475 0.090200 0.053625
0.890795 0.088978 0.050569
0.961883 0.087808 0.047646
0.961883 0.087808 0.047646
0.000000 0.172579 0.079885
0.000000 0.172579 0.079885
0.007181 0.171410 0.076962
0.081501 0.170187 0.073906
0.155820 0.168965 0.070849
0.230140 0.167742 0.067793
0.304460 0.166520 0.064737
0.378780 0.165297 0.061681
0.453100 0.164075 0.058625
0.527420 0.162853 0.055569
0.601740 0.161630 0.052513
0.676060 0.160408 0.049457
0.750380 0.159185 0.046401
0.824700 0.157963 0.043344
0.899019 0.156740 0.040288
0.970108 0.155571 0.037365
0.970108 0.155571 0.037365
0.000000 0.240342 0.069604
0.000000 0.240342 0.069604
0.015405 0.239172 0.066681
0.089725 0.237950 0.063625
0.164045 0.236727 0.060569
0.238365 0.235505 0.057512
0.312685 0.234283 0.054456
0.387005 0.233060 0.051400
0.461325 0.231838 0.048344
0.535645 0.230615 0.045288
0.609965 0.229393 0.042232
0.684284 0.228170 0.039176
0.758604 0.226948 0.036119
0.832924 0.225725 0.033063
0.907244 0.224503 0.030007
0.978333 0.223334 0.027084
0.978333 0.223334 0.027084
0.000000 0.308104 0.059323
0.000000 0.308104 0.059323
0.023630 0.306935 0.056400
0.097950 0.305712 0.053344
0.172270 0.304490 0.050287
0.246590 0.303268 0.047231
0.320910 0.302045 0.044175
0.395230 0.300823 0.041119
0.469550 0.299600 0.038063
0.543870 0.298378 0.035007
0.618189 0.297155 0.031951
0.692509 0.295933 0.028895
0.766829 0.294710 0.025839
0.841149 0.293488 0.022782
0.915469 0.292266 0.019726
0.986558 0.291096 0.016803
0.986558 0.291096 0.016803
0.000000 0.375867 0.049042
0.000000 0.375867 0.049042
0.031855 0.374698 0.046119
0.106175 0.373475 0.043063
0.180495 0.372253 0.040006
0.254815 0.371030 0.036950
0.329135 0.369808 0.033894
0.403454 0.368585 0.030838
0.477774 0.367363 0.027782
0.552094 0.366140 0.024726
0.626414 0.364918 0.021670
0.700734 0.363695 0.018614
0.775054 0.362473 0.015558
0.849374 0.361251 0.012501
0.923694 0.360028 0.009445
0.994782 0.358859 0.006522
0.994782 0.358859 0.006522
0.000000 0.443629 0.038761
0.000000 0.443629 0.038761
0.040080 0.442460 0.035838
0.114400 0.441238 0.032782
0.188720 0.440015 0.029726
0.263040 0.438793 0.026669
0.337359 0.437570 0.023613
0.411679 0.436348 0.020557
0.485999 0.435125 0.017501
0.560319 0.433903 0.014445
0.634639 0.432680 0.011389
0.708959 0.431458 0.008333
0.783279 0.430236 0.005277
0.857599 0.429013 0.002220
0.932086 0.428459 0.000000
1.000000 0.429629 0.000000
1.000000 0.429629 0.000000
0.000000 0.511392 0.028480
0.000000 0.511392 0.028480
0.048305 0.510223 0.025557
0.122624 0.509000 0.022501
0.196944 0.507778 0.019444
0.271264 0.506555 0.016388
0.345584 0.505333 0.013332
0.419904 0.504110 0.010276
0.494224 0.502888 0.007220
0.568544 0.501666 0.004164
0.642864 0.500443 0.001108
0.717573 0.500779 0.000000
0.792504 0.502002 0.000000
0.867436 0.503224 0.000000
0.942367 0.504447 0.000000
1.000000 0.505616 0.000000
1.000000 0.505616 0.000000
0.000000 0.579155 0.018199
0.000000 0.579155 0.018199
0.056529 0.577985 0.015276
0.130849 0.576763 0.012220
0.205169 0.575540 0.009163
0.279489 0.574318 0.006107
0.353809 0.573095 0.003051
0.428130 0.571877 0.000000
0.503061 0.573099 0.000000
0.577992 0.574322 0.000000
0.652923 0.575544 0.000000
0.727854 0.576767 0.000000
0.802785 0.577989 0.000000
0.877717 0.579212 0.000000
0.952648 0.580434 0.000000
1.000000 0.581603 0.000000
1.000000 0.581603 0.000000
0.000000 0.646917 0.007918
0.000000 0.646917 0.007918
0.064754 0.645748 0.004995
0.139074 0.644525 0.001939
0.213618 0.644197 0.000000
0.288549 0.645419 0.000000
0.363480 0.646642 0.000000
0.438411 0.647864 0.000000
0.513342 0.649087 0.000000
0.588273 0.650309 0.000000
0.663204 0.651532 0.000000
0.738135 0.652754 0.000000
0.813067 0.653977 0.000000
0.887998 0.655199 0.000000
0.962929 0.656421 0.000000
1.000000 0.657591 0.000000
1.000000 0.657591 0.000000
0.002363 0.716570 0.000000
0.002363 0.716570 0.000000
0.074036 0.717739 0.000000
0.148967 0.718962 0.000000
0.223899 0.720184 0.000000
0.298830 0.721407 0.000000
0.373761 0.722629 0.000000
0.448692 0.723852 0.000000
0.523623 0.725074 0.000000
0.598554 0.726297 0.000000
0.673485 0.727519 0.000000
0.748416 0.728742 0.000000
0.823348 0.729964 0.000000
0.898279 0.731186 0.000000
0.973210 0.732409 0.000000
1.000000 0.733578 0.000000
1.000000 0.733578 0.000000
0.012644 0.792558 0.000000
0.012644 0.792558 0.000000
0.084317 0.793727 0.000000
0.159248 0.794949 0.000000
0.234180 0.796172 0.000000
0.309111 0.797394 0.000000
0.384042 0.798617 0.000000
0.458973 0.799839 0.000000
0.533904 0.801062 0.000000
0.608835 0.802284 0.000000
0.683766 0.803507 0.000000
0.758697 0.804729 0.000000
0.833628 0.805951 0.000000
0.908560 0.807174 0.000000
0.983491 0.808396 0.000000
1.000000 0.809566 0.000000
1.000000 0.809566 0.000000
0.022925 0.868545 0.000000
0.022925 0.868545 0.000000
0.094598 0.869714 0.000000
0.169529 0.870937 0.000000
0.244461 0.872159 0.000000
0.319392 0.873382 0.000000
0.394323 0.874604 0.000000
0.469254 0.875827 0.000000
0.544185 0.877049 0.000000
0.619116 0.878271 0.000000
0.694047 0.879494 0.000000
0.768978 0.880716 0.000000
0.843909 0.881939 0.000000
0.918841 0.883161 0.000000
0.993772 0.884384 0.000000
1.000000 0.885553 0.000000
1.000000 0.885553 0.000000
0.033206 0.944532 0.000000
0.033206 0.944532 0.000000
0.104879 0.945702 0.000000
0.179810 0.946924 0.000000
0.254742 0.948147 0.000000
0.329673 0.949369 0.000000
0.404604 0.950591 0.000000
0.479535 0.951814 0.000000
0.554466 0.953036 0.000000
0.629397 0.954259 0.000000
0.704328 0.955481 0.000000
0.779259 0.956704 0.000000
0.854190 0.957926 0.000000
0.929122 0.959149 0.000000
1.000000 0.960371 0.000000
1.000000 0.961540 0.000000
1.000000 0.961540 0.000000
0.043040 1.000000 0.000000
0.043040 1.000000 0.000000
0.114713 1.000000 0.000000
0.189644 1.000000 0.000000
0.264576 1.000000 0.000000
0.339507 1.000000 0.000000
0.414438 1.000000 0.000000
0.489369 1.000000 0.000000
0.564300 1.000000 0.000000
0.639231 1.000000 0.000000
0.714162 1.000000 0.000000
0.789093 1.000000 0.000000
0.864024 1.000000 0.000000
0.938956 1.000000 0.000000
1.000000 1.000000 0.000000
1.000000 1.000000 0.000000
1.000000 1.000000 0.000000
0.043040 1.000000 0.000000
0.043040 1.000000 0.000000
0.114713 1.000000 0.000000
0.189644 1.000000 0.000000
0.264576 1.000000 0.000000
0.339507 1.000000 0.000000
0.414438 1.000000 0.000000
0.489369 1.000000 0.000000
0.564300 1.000000 0.000000
0.639231 1.000000 0.000000
0.714162 1.000000 0.000000
0.789093 1.000000 0.000000
0.864024 1.000000 0.000000
0.938956 1.000000 0.000000
1.000000 1.000000 0.000000
1.000000 1.000000 0.000000
1.000000 1.000000 0.000000
0.000000 0.040000 0.100000
0.000000 0.040000 0.100000
0.000000 0.038831 0.097077
0.065408 0.037608 0.094021
0.139728 0.036386 0.090965
0.214048 0.035163 0.087908
0.288368 0.033941 0.084852
0.362688 0.032718 0.081796
0.437008 0.031496 0.078740
0.511328 0.030274 0.075684
0.585648 0.029051 0.072628
0.659968 0.027829 0.069572
0.734288 0.026606 0.066515
0.808608 0.025384 0.063459
0.882927 0.024161 0.060403
0.954016 0.022992 0.057480
0.954016 0.022992 0.057480
0.000000 0.040000 0.100000
0.000000 0.040000 0.100000
0.000000 0.038831 0.097077
0.065408 0.037608 0.094021
0.139728 0.036386 0.090965
0.214048 0.035163 0.087908
0.288368 0.033941 0.084852
0.362688 0.032718 0.081796
0.437008 0.031496 0.078740
0.511328 0.030274 0.075684
0.585648 0.029051 0.072628
0.659968 0.027829 0.069572
0.734288 0.026606 0.066515
0.808608 0.025384 0.063459
0.882927 0.024161 0.060403
0.954016 0.022992 0.057480
0.954016 0.022992 0.057480
0.000000 0.104816 0.090166
0.000000 0.104816 0.090166
0.000000 0.103647 0.087243
0.073276 0.102425 0.084187
0.147596 0.101202 0.081130
0.221916 0.099980 0.078074
0.296235 0.098757 0.075018
0.370555 0.097535 0.071962
0.444875 0.096312 0.068906
0.519195 0.095090 0.065850
0.593515 0.093868 0.062794
0.667835 0.092645 0.059738
0.742155 0.091423 0.056681
0.816475 0.090200 0.053625
0.890795 0.088978 0.050569
0.961883 0.087808 0.047646
0.961883 0.087808 0.047646
0.000000 0.172579 0.079885
0.000000 0.172579 0.079885
0.007181 0.171410 0.076962
0.081501 0.170187 0.073906
0.155820 0.168965 0.070849
0.230140 0.167742 0.067793
0.304460 0.166520 0.064737
0.378780 0.165297 0.061681
0.453100 0.164075 0.058625
0.527420 0.162853 0.055569
0.601740 0.161630 0.052513
0.676060 0.160408 0.049457
0.750380 0.159185 0.046401
0.824700 0.157963 0.043344
0.899019 0.156740 0.040288
0.970108 0.155571 0.037365
0.970108 0.155571 0.037365
0.000000 0.240342 0.069604
0.000000 0.240342 0.069604
0.015405 0.239172 0.066681
0.089725 0.237950 0.063625
0.164045 0.236727 0.060569
0.238365 0.235505 0.057512
0.312685 0.234283 0.054456
0.387005 0.233060 0.051400
0.461325 0.231838 0.048344
0.535645 0.230615 0.045288
0.609965 0.229393 0.042232
0.684284 0.228170 0.039176
0.758604 0.226948 0.036119
0.832924 0.225725 0.033063
0.907244 0.224503 0.030007
0.978333 0.223334 0.027084
0.978333 0.223334 0.027084
0.000000 0.308104 0.059323
0.000000 0.308104 0.059323
0.023630 0.306935 0.056400
0.097950 0.305712 0.053344
0.172270 0.304490 0.050287
0.246590 0.303268 0.047231
0.320910 0.302045 0.044175
0.395230 0.300823 0.041119
0.469550 0.299600 0.038063
0.543870 0.298378 0.035007
0.618189 0.297155 0.031951
0.692509 0.295933 0.028895
0.766829 0.294710 0.025839
0.841149 0.293488 0.022782
0.915469 0.292266 0.019726
0.986558 0.291096 0.016803
0.986558 0.291096 0.016803
0.000000 0.375867 0.049042
0.000000 0.375867 0.049042
0.031855 0.374698 0.046119
0.106175 0.373475 0.043063
0.180495 0.372253 0.040006
0.254815 0.371030 0.036950
0.329135 0.369808 0.033894
0.403454 0.368585 0.030838
0.477774 0.367363 0.027782
0.552094 0.366140 0.024726
0.626414 0.364918 0.021670
0.700734 0.363695 0.018614
0.775054 0.362473 0.015558
0.849374 0.361251 0.012501
0.923694 0.360028 0.009445
0.994782 0.358859 0.006522
0.994782 0.358859 0.006522
0.000000 0.443629 0.038761
0.000000 0.443629 0.038761
0.040080 0.442460 0.035838
0.114400 0.441238 0.032782
0.188720 0.440015 0.029726
0.263040 0.438793 0.026669
0.337359 0.437570 0.023613
0.411679 0.436348 0.020557
0.485999 0.435125 0.017501
0.560319 0.433903 0.014445
0.634639 0.432680 0.011389
0.708959 0.431458 0.008333
0.783279 0.430236 0.005277
0.857599 0.429013 0.002220
0.932086 0.428459 0.000000
1.000000 0.429629 0.000000
1.000000 0.429629 0.000000
0.000000 0.511392 0.028480
0.000000 0.511392 0.028480
0.048305 0.510223 0.025557
0.122624 0.509000 0.022501
0.196944 0.507778 0.019444
0.271264 0.506555 0.016388
0.345584 0.505333 0.013332
0.419904 0.504110 0.010276
0.494224 0.502888 0.007220
0.568544 0.501666 0.004164
0.642864 0.500443 0.001108
0.717573 0.500779 0.000000
0.792504 0.502002 0.000000
0.867436 0.503224 0.000000
0.942367 0.504447 0.000000
1.000000 0.505616 0.000000
1.000000 0.505616 0.000000
0.000000 0.579155 0.018199
0.000000 0.579155 0.018199
0.056529 0.577985 0.015276
0.130849 0.576763 0.012220
0.205169 0.575540 0.009163
0.279489 0.574318 0.006107
0.353809 0.573095 0.003051
0.428130 0.571877 0.000000
0.503061 0.573099 0.000000
0.577992 0.574322 0.000000
0.652923 0.575544 0.000000
0.727854 0.576767 0.000000
0.802785 0.577989 0.000000
0.877717 0.579212 0.000000
0.952648 0.580434 0.000000
1.000000 0.581603 0.000000
1.000000 0.581603 0.000000
0.000000 0.646917 0.007918
0.000000 0.646917 0.007918
0.064754 0.645748 0.004995
0.139074 0.644525 0.001939
0.213618 0.644197 0.000000
0.288549 0.645419 0.000000
0.363480 0.646642 0.000000
0.438411 0.647864 0.000000
0.513342 0.649087 0.000000
0.588273 0.650309 0.000000
0.663204 0.651532 0.000000
0.738135 0.652754 0.000000
0.813067 0.653977 0.000000
0.887998 0.655199 0.000000
0.962929 0.656421 0.000000
1.000000 0.657591 0.000000
1.000000 0.657591 0.000000
0.002363 0.716570 0.000000
0.002363 0.716570 0.000000
0.074036 0.717739 0.000000
0.148967 0.718962 0.000000
0.223899 0.720184 0.000000
0.298830 0.721407 0.000000
0.373761 0.722629 0.000000
0.448692 0.723852 0.000000
0.523623 0.725074 0.000000
0.598554 0.726297 0.000000
0.673485 0.727519 0.000000
0.748416 0.728742 0.000000
0.823348 0.729964 0.000000
0.898279 0.731186 0.000000
0.973210 0.732409 0.000000
1.000000 0.733578 0.000000
1.000000 0.733578 0.000000
0.012644 0.792558 0.000000
0.012644 0.792558 0.000000
0.084317 0.793727 0.000000
0.159248 0.794949 0.000000
0.234180 0.796172 0.000000
0.309111 0.797394 0.000000
0.384042 0.798617 0.000000
0.458973 0.799839 0.000000
0.533904 0.801062 0.000000
0.608835 0.802284 0.000000
0.683766 0.803507 0.000000
0.758697 0.804729 0.000000
0.833628 0.805951 0.000000
0.908560 0.807174 0.000000
0.983491 0.808396 0.000000
1.000000 0.809566 0.000000
1.000000 0.809566 0.000000
0.022925 0.868545 0.000000
0.022925 0.868545 0.000000
0.094598 0.869714 0.000000
0.169529 0.870937 0.000000
0.244461 0.872159 0.000000
0.319392 0.873382 0.000000
0.394323 0.874604 0.000000
0.469254 0.875827 0.000000
0.544185 0.877049 0.000000
0.619116 0.878271 0.000000
0.694047 0.879494 0.000000
0.768978 0.880716 0.000000
0.843909 0.881939 0.000000
0.918841 0.883161 0.000000
0.993772 0.884384 0.000000
1.000000 0.885553 0.000000
1.000000 0.885553 0.000000
0.033206 0.944532 0.000000
0.033206 0.944532 0.000000
0.104879 0.945702 0.000000
0.179810 0.946924 0.000000
0.254742 0.948147 0.000000
0.329673 0.949369 0.000000
0.404604 0.950591 0.000000
0.479535 0.951814 0.000000
0.554466 0.953036 0.000000
0.629397 0.954259 0.000000
0.704328 0.955481 0.000000
0.779259 0.956704 0.000000
0.854190 0.957926 0.000000
0.929122 0.959149 0.000000
1.000000 0.960371 0.000000
1.000000 0.961540 0.000000
1.000000 0.961540 0.000000
0.043040 1.000000 0.000000
0.043040 1.000000 0.000000
0.114713 1.000000 0.000000
0.189644 1.000000 0.000000
0.264576 1.000000 0.000000
0.339507 1.000000 0.000000
0.414438 1.000000 0.000000
0.489369 1.000000 0.000000
0.564300 1.000000 0.000000
0.639231 1.000000 0.000000
0.714162 1.000000 0.000000
0.789093 1.000000 0.000000
0.864024 1.000000 0.000000
0.938956 1.000000 0.000000
1.000000 1.000000 0.000000
1.000000 1.000000 0.000000
1.000000 1.000000 0.000000
0.043040 1.000000 0.000000
0.043040 1.000000 0.000000
0.114713 1.000000 0.000000
0.189644 1.000000 0.000000
0.264576 1.000000 0.000000
0.339507 1.000000 0.000000
0.414438 1.000000 0.000000
0.489369 1.000000 0.000000
0.564300 1.000000 0.000000
0.639231 1.000000 0.000000
0.714162 1.000000 0.000000
0.789093 1.000000 0.000000
0.864024 1.000000 0.000000
0.938956 1.000000 0.000000
1.000000 1.000000 0.000000
1.000000 1.000000 0.000000
1.000000 1.000000 0.000000
0.000000 0.039603 0.167757
0.000000 0.039603 0.167757
0.000000 0.038434 0.164834
0.066203 0.037211 0.161778
0.140523 0.035989 0.158722
0.214843 0.034766 0.155666
0.289162 0.033544 0.152610
0.363482 0.032321 0.149553
0.437802 0.031099 0.146497
0.512122 0.029876 0.143441
0.586442 0.028654 0.140385
0.660762 0.027432 0.137329
0.735082 0.026209 0.134273
0.809402 0.024987 0.131217
0.883722 0.023764 0.128161
0.954810 0.022595 0.125237
0.954810 0.022595 0.125237
0.000000 0.039603 0.167757
0.000000 0.039603 0.167757
0.000000 0.038434 0.164834
0.066203 0.037211 0.161778
0.140523 0.035989 0.158722
0.214843 0.034766 0.155666
0.289162 0.033544 0.152610
0.363482 0.032321 0.149553
0.437802 0.031099 0.146497
0.512122 0.029876 0.143441
0.586442 0.028654 0.140385
0.660762 0.027432 0.137329
0.735082 0.026209 0.134273
0.809402 0.024987 0.131217
0.883722 0.023764 0.128161
0.954810 0.022595 0.125237
0.954810 0.022595 0.125237
0.000000 0.104419 0.157923
0.000000 0.104419 0.157923
0.000000 0.103250 0.155000
0.074070 0.102028 0.151944
0.148390 0.100805 0.148888
0.222710 0.099583 0.145832
0.297030 0.098360 0.142776
0.371349 0.097138 0.139719
0.445669 0.095915 0.136663
0.519989 0.094693 0.133607
0.594309 0.093470 0.130551
0.668629 0.092248 0.127495
0.742949 0.091026 0.124439
0.817269 0.089803 0.121383
0.891589 0.088581 0.118327
0.962677 0.087411 0.115403
0.962677 0.087411 0.115403
0.000000 0.172182 0.147642
0.000000 0.172182 0.147642
0.007975 0.171013 0.144719
0.082295 0.169790 0.141663
0.156615 0.168568 0.138607
0.230935 0.167345 0.135551
0.305254 0.166123 0.132495
0.379574 0.164900 0.129438
0.453894 0.163678 0.126382
0.528214 0.162455 0.123326
0.602534 0.161233 0.120270
0.676854 0.160011 0.117214
0.751174 0.158788 0.114158
0.825494 0.157566 0.111102
0.899814 0.156343 0.108046
0.970902 0.155174 0.105122
0.970902 0.155174 0.105122
0.000000 0.239945 0.137361
0.000000 0.239945 0.137361
0.016200 0.238775 0.134438
0.090520 0.237553 0.131382
0.164839 0.236330 0.128326
0.239159 0.235108 0.125270
0.313479 0.233885 0.122214
0.387799 0.232663 0.119157
0.462119 0.231441 0.116101
0.536439 0.230218 0.113045
0.610759 0.228996 0.109989
0.685079 0.227773 0.106933
0.759399 0.226551 0.103877
0.833719 0.225328 0.100821
0.908038 0.224106 0.097765
0.979127 0.222937 0.094841
0.979127 0.222937 0.094841
0.000000 0.307707 0.127080
0.000000 0.307707 0.127080
0.024424 0.306538 0.124157
0.098744 0.305315 0.121101
0.173064 0.304093 0.118045
0.247384 0.302870 0.114989
0.321704 0.301648 0.111933
0.396024 0.300426 0.108876
0.470344 0.299203 0.105820
0.544664 0.297981 0.102764
0.618984 0.296758 0.099708
0.693303 0.295536 0.096652
0.767623 0.294313 0.093596
0.841943 0.293091 0.090540
0.916263 0.291868 0.087484
0.987352 0.290699 0.084560
0.987352 0.290699 0.084560
0.000000 0.375470 0.116799
0.000000 0.375470 0.116799
0.032649 0.374300 0.113876
0.106969 0.373078 0.110820
0.181289 0.371856 0.107764
0.255609 0.370633 0.104708
0.329929 0.369411 0.101652
0.404249 0.368188 0.098595
0.478569 0.366966 0.095539
0.552889 0.365743 0.092483
0.627208 0.364521 0.089427
0.701528 0.363298 0.086371
0.775848 0.362076 0.083315
0.850168 0.360853 0.080259
0.924488 0.359631 0.077203
0.995577 0.358462 0.074279
0.995577 0.358462 0.074279
0.000000 0.443232 0.106518
0.000000 0.443232 0.106518
0.040874 0.442063 0.103595
0.115194 0.440841 0.100539
0.189514 0.439618 0.097483
0.263834 0.438396 0.094427
0.338154 0.437173 0.091371
0.412473 0.435951 0.088314
0.486793 0.434728 0.085258
0.561113 0.433506 0.082202
0.635433 0.432283 0.079146
0.709753 0.431061 0.076090
0.784073 0.429839 0.073034
0.858393 0.428616 0.069978
0.933078 0.428856 0.067287
1.000000 0.430026 0.064949
1.000000 0.430026 0.064949
0.000000 0.510995 0.096237
0.000000 0.510995 0.096237
0.049099 0.509826 0.093314
0.123419 0.508603 0.090258
0.197739 0.507381 0.087202
0.272059 0.506158 0.084146
0.346378 0.504936 0.081090
0.420698 0.503713 0.078033
0.495018 0.502491 0.074977
0.569338 0.501268 0.071921
0.643658 0.500046 0.068865
0.718566 0.501176 0.066397
0.793497 0.502399 0.063952
0.868428 0.503621 0.061507
0.943359 0.504844 0.059062
1.000000 0.506013 0.056724
1.000000 0.506013 0.056724
0.000000 0.578758 0.085956
0.000000 0.578758 0.085956
0.057324 0.577588 0.083033
0.131643 0.576366 0.079977
0.205963 0.575143 0.076921
0.280283 0.573921 0.073865
0.354603 0.572698 0.070809
0.429123 0.572274 0.067952
0.504054 0.573497 0.065507
0.578985 0.574719 0.063062
0.653916 0.575941 0.060617
0.728847 0.577164 0.058172
0.803778 0.578386 0.055727
0.878709 0.579609 0.053283
0.953640 0.580831 0.050838
1.000000 0.582001 0.048499
1.000000 0.582001 0.048499
0.000000 0.646520 0.075675
0.000000 0.646520 0.075675
0.065548 0.645351 0.072752
0.139868 0.644128 0.069696
0.214610 0.644594 0.067062
0.289541 0.645817 0.064617
0.364473 0.647039 0.062172
0.439404 0.648261 0.059727
0.514335 0.649484 0.057282
0.589266 0.650706 0.054837
0.664197 0.651929 0.052392
0.739128 0.653151 0.049948
0.814059 0.654374 0.047503
0.888990 0.655596 0.045058
0.963921 0.656819 0.042613
1.000000 0.657988 0.040274
1.000000 0.657988 0.040274
0.003356 0.716967 0.066065
0.003356 0.716967 0.066065
0.075029 0.718137 0.063727
0.149960 0.719359 0.061282
0.224891 0.720581 0.058837
0.299822 0.721804 0.056392
0.374754 0.723026 0.053947
0.449685 0.724249 0.051502
0.524616 0.725471 0.049057
0.599547 0.726694 0.046613
0.674478 0.727916 0.044168
0.749409 0.729139 0.041723
0.824340 0.730361 0.039278
0.899271 0.731584 0.036833
0.974202 0.732806 0.034388
1.000000 0.733975 0.032049
1.000000 0.733975 0.032049
0.013637 0.792955 0.057841
0.013637 0.792955 0.057841
0.085310 0.794124 0.055502
0.160241 0.795346 0.053057
0.235172 0.796569 0.050612
0.310103 0.797791 0.048167
0.385035 0.799014 0.045722
0.459966 0.800236 0.043278
0.534897 0.801459 0.040833
0.609828 0.802681 0.038388
0.684759 0.803904 0.035943
0.759690 0.805126 0.033498
0.834621 0.806349 0.031053
0.909552 0.807571 0.028608
0.984483 0.808793 0.026163
1.000000 0.809963 0.023825
1.000000 0.809963 0.023825
0.023918 0.868942 0.049616
0.023918 0.868942 0.049616
0.095591 0.870111 0.047277
0.170522 0.871334 0.044832
0.245453 0.872556 0.042387
0.320384 0.873779 0.039943
0.395316 0.875001 0.037498
0.470247 0.876224 0.035053
0.545178 0.877446 0.032608
0.620109 0.878669 0.030163
0.695040 0.879891 0.027718
0.769971 0.881113 0.025273
0.844902 0.882336 0.022828
0.919833 0.883558 0.020383
0.994764 0.884781 0.017938
1.000000 0.885950 0.015600
1.000000 0.885950 0.015600
0.034199 0.944929 0.041391
0.034199 0.944929 0.041391
0.105872 0.946099 0.039052
0.180803 0.947321 0.036608
0.255734 0.948544 0.034163
0.330665 0.949766 0.031718
0.405597 0.950989 0.029273
0.480528 0.952211 0.026828
0.555459 0.953433 0.024383
0.630390 0.954656 0.021938
0.705321 0.955878 0.019493
0.780252 0.957101 0.017048
0.855183 0.958323 0.014603
0.930114 0.959546 0.012159
1.000000 0.960768 0.009714
1.000000 0.961937 0.007375
1.000000 0.961937 0.007375
0.044033 1.000000 0.033524
0.044033 1.000000 0.033524
0.115706 1.000000 0.031185
0.190637 1.000000 0.028740
0.265568 1.000000 0.026295
0.340499 1.000000 0.023851
0.415431 1.000000 0.021406
0.490362 1.000000 0.018961
0.565293 1.000000 0.016516
0.640224 1.000000 0.014071
0.715155 1.000000 0.011626
0.790086 1.000000 0.009181
0.865017 1.000000 0.006736
0.939948 1.000000 0.004291
1.000000 1.000000 0.001846
1.000000 1.000000 0.000000
1.000000 1.000000 0.000000
0.044033 1.000000 0.033524
0.044033 1.000000 0.033524
0.115706 1.000000 0.031185
0.190637 1.000000 0.028740
0.265568 1.000000 0.026295
0.340499 1.000000 0.023851
0.415431 1.000000 0.021406
0.490362 1.000000 0.018961
0.565293 1.000000 0.016516
0.640224 1.000000 0.014071
0.715155 1.000000 0.011626
0.790086 1.000000 0.009181
0.865017 1.000000 0.006736
0.939948 1.000000 0.004291
1.000000 1.000000 0.001846
1.000000 1.000000 0.000000
1.000000 1.000000 0.000000
0.000000 0.039188 0.238594
0.000000 0.039188 0.238594
0.000000 0.038018 0.235671
0.067033 0.036796 0.232615
0.141353 0.035574 0.229559
0.215673 0.034351 0.226503
0.289993 0.033129 0.223447
0.364313 0.031906 0.220390
0.438632 0.030684 0.217334
0.512952 0.029461 0.214278
0.587272 0.028239 0.211222
0.661592 0.027016 0.208166
0.735912 0.025794 0.205110
0.810232 0.024571 0.202054
0.884552 0.023349 0.198998
