assets/luts/vintage.cube
# Vintage Warm
# Generated by Sprint 16-C2 LUT preset generator. Cube size 17.
TITLE "Vintage Warm"
LUT_3D_SIZE 5
DOMAIN_MIN 0.0 0.0 0.0
DOMAIN_MAX 1.0 1.0 1.0
0.109063 0.063473 0.000000
0.353567 0.063473 0.000000
0.587094 0.063473 0.000000
0.815315 0.063473 0.000000
1.000000 0.063473 0.000000
0.109063 0.302291 0.000000
0.353567 0.302291 0.000000
0.587094 0.302291 0.000000
0.815315 0.302291 0.000000
1.000000 0.302291 0.000000
0.109063 0.536773 0.000000
0.353567 0.536773 0.000000
0.587094 0.536773 0.000000
0.815315 0.536773 0.000000
1.000000 0.536773 0.000000
0.109063 0.769110 0.000000
0.353567 0.769110 0.000000
0.587094 0.769110 0.000000
0.815315 0.769110 0.000000
1.000000 0.769110 0.000000
0.109063 1.000000 0.000000
0.353567 1.000000 0.000000
0.587094 1.000000 0.000000
0.815315 1.000000 0.000000
1.000000 1.000000 0.000000
0.109063 0.063473 0.207552
0.353567 0.063473 0.207552
0.587094 0.063473 0.207552
0.815315 0.063473 0.207552
1.000000 0.063473 0.207552
0.109063 0.302291 0.207552
0.353567 0.302291 0.207552
0.587094 0.302291 0.207552
0.815315 0.302291 0.207552
1.000000 0.302291 0.207552
0.109063 0.536773 0.207552
0.353567 0.536773 0.207552
0.587094 0.536773 0.207552
0.815315 0.536773 0.207552
1.000000 0.536773 0.207552
0.109063 0.769110 0.207552
0.353567 0.769110 0.207552
0.587094 0.769110 0.207552
0.815315 0.769110 0.207552
1.000000 0.769110 0.207552
0.109063 1.000000 0.207552
0.353567 1.000000 0.207552
0.587094 1.000000 0.207552
0.815315 1.000000 0.207552
1.000000 1.000000 0.207552
0.109063 0.063473 0.443753
0.353567 0.063473 0.443753
0.587094 0.063473 0.443753
0.815315 0.063473 0.443753
1.000000 0.063473 0.443753
0.109063 0.302291 0.443753
0.353567 0.302291 0.443753
0.587094 0.302291 0.443753
0.815315 0.302291 0.443753
1.000000 0.302291 0.443753
0.109063 0.536773 0.443753
0.353567 0.536773 0.443753
0.587094 0.536773 0.443753
0.815315 0.536773 0.443753
1.000000 0.536773 0.443753
0.109063 0.769110 0.443753
0.353567 0.769110 0.443753
0.587094 0.769110 0.443753
0.815315 0.769110 0.443753
1.000000 0.769110 0.443753
0.109063 1.000000 0.443753
0.353567 1.000000 0.443753
0.587094 1.000000 0.443753
0.815315 1.000000 0.443753
1.000000 1.000000 0.443753
0.109063 0.063473 0.688780
0.353567 0.063473 0.688780
0.587094 0.063473 0.688780
0.815315 0.063473 0.688780
1.000000 0.063473 0.688780
0.109063 0.302291 0.688780
0.353567 0.302291 0.688780
0.587094 0.302291 0.688780
0.815315 0.302291 0.688780
1.000000 0.302291 0.688780
0.109063 0.536773 0.688780
0.353567 0.536773 0.688780
0.587094 0.536773 0.688780
0.815315 0.536773 0.688780
1.000000 0.536773 0.688780
0.109063 0.769110 0.688780
0.353567 0.769110 0.688780
0.587094 0.769110 0.688780
0.815315 0.769110 0.688780
1.000000 0.769110 0.688780
0.109063 1.000000 0.688780
0.353567 1.000000 0.688780
0.587094 1.000000 0.688780
0.815315 1.000000 0.688780
1.000000 1.000000 0.688780
0.109063 0.063473 0.940000
0.353567 0.063473 0.940000
0.587094 0.063473 0.940000
0.815315 0.063473 0.940000
1.000000 0.063473 0.940000
0.109063 0.302291 0.940000
0.353567 0.302291 0.940000
0.587094 0.302291 0.940000
0.815315 0.302291 0.940000
1.000000 0.302291 0.940000
0.109063 0.536773 0.940000
0.353567 0.536773 0.940000
0.587094 0.536773 0.940000
0.815315 0.536773 0.940000
1.000000 0.536773 0.940000
0.109063 0.769110 0.940000
0.353567 0.769110 0.940000
0.587094 0.769110 0.940000
0.815315 0.769110 0.940000
1.000000 0.769110 0.940000
0.109063 1.000000 0.940000
0.353567 1.000000 0.940000
0.587094 1.000000 0.940000
0.815315 1.000000 0.940000
1.000000 1.000000 0.940000
