assets/luts/vintage.cube
# Vintage Warm
# Generated by Sprint 16-C2 LUT preset generator. Cube size 17.
TITLE "Vintage Warm"
LUT_3D_SIZE 17
DOMAIN_MIN 0.0 0.0 0.0
DOMAIN_MAX 1.0 1.0 1.0
0.109063 0.063473 0.000000
0.172100 0.063473 0.000000
0.233526 0.063473 0.000000
0.293924 0.063473 0.000000
0.353567 0.063473 0.000000
0.412616 0.063473 0.000000
0.471174 0.063473 0.000000
0.529315 0.063473 0.000000
0.587094 0.063473 0.000000
0.644553 0.063473 0.000000
0.701725 0.063473 0.000000
0.758639 0.063473 0.000000
0.815315 0.063473 0.000000
0.871775 0.063473 0.000000
0.928033 0.063473 0.000000
0.984104 0.063473 0.000000
1.000000 0.063473 0.000000
0.109063 0.123920 0.000000
0.172100 0.123920 0.000000
0.233526 0.123920 0.000000
0.293924 0.123920 0.000000
0.353567 0.123920 0.000000
0.412616 0.123920 0.000000
0.471174 0.123920 0.000000
0.529315 0.123920 0.000000
0.587094 0.123920 0.000000
0.644553 0.123920 0.000000
0.701725 0.123920 0.000000
0.758639 0.123920 0.000000
0.815315 0.123920 0.000000
0.871775 0.123920 0.000000
0.928033 0.123920 0.000000
0.984104 0.123920 0.000000
1.000000 0.123920 0.000000
0.109063 0.183745 0.000000
0.172100 0.183745 0.000000
0.233526 0.183745 0.000000
0.293924 0.183745 0.000000
0.353567 0.183745 0.000000
0.412616 0.183745 0.000000
0.471174 0.183745 0.000000
0.529315 0.183745 0.000000
0.587094 0.183745 0.000000
0.644553 0.183745 0.000000
0.701725 0.183745 0.000000
0.758639 0.183745 0.000000
0.815315 0.183745 0.000000
0.871775 0.183745 0.000000
0.928033 0.183745 0.000000
0.984104 0.183745 0.000000
1.000000 0.183745 0.000000
0.109063 0.243167 0.000000
0.172100 0.243167 0.000000
0.233526 0.243167 0.000000
0.293924 0.243167 0.000000
0.353567 0.243167 0.000000
0.412616 0.243167 0.000000
0.471174 0.243167 0.000000
0.529315 0.243167 0.000000
0.587094 0.243167 0.000000
0.644553 0.243167 0.000000
0.701725 0.243167 0.000000
0.758639 0.243167 0.000000
0.815315 0.243167 0.000000
0.871775 0.243167 0.000000
0.928033 0.243167 0.000000
0.984104 0.243167 0.000000
1.000000 0.243167 0.000000
0.109063 0.302291 0.000000
0.172100 0.302291 0.000000
0.233526 0.302291 0.000000
0.293924 0.302291 0.000000
0.353567 0.302291 0.000000
0.412616 0.302291 0.000000
0.471174 0.302291 0.000000
0.529315 0.302291 0.000000
0.587094 0.302291 0.000000
0.644553 0.302291 0.000000
0.701725 0.302291 0.000000
0.758639 0.302291 0.000000
0.815315 0.302291 0.000000
0.871775 0.302291 0.000000
0.928033 0.302291 0.000000
0.984104 0.302291 0.000000
1.000000 0.302291 0.000000
0.109063 0.361179 0.000000
0.172100 0.361179 0.000000
0.233526 0.361179 0.000000
0.293924 0.361179 0.000000
0.353567 0.361179 0.000000
0.412616 0.361179 0.000000
0.471174 0.361179 0.000000
0.529315 0.361179 0.000000
0.587094 0.361179 0.000000
0.644553 0.361179 0.000000
0.701725 0.361179 0.000000
0.758639 0.361179 0.000000
0.815315 0.361179 0.000000
0.871775 0.361179 0.000000
0.928033 0.361179 0.000000
0.984104 0.361179 0.000000
1.000000 0.361179 0.000000
0.109063 0.419871 0.000000
0.172100 0.419871 0.000000
0.233526 0.419871 0.000000
0.293924 0.419871 0.000000
0.353567 0.419871 0.000000
0.412616 0.419871 0.000000
0.471174 0.419871 0.000000
0.529315 0.419871 0.000000
0.587094 0.419871 0.000000
0.644553 0.419871 0.000000
0.701725 0.419871 0.000000
0.758639 0.419871 0.000000
0.815315 0.419871 0.000000
0.871775 0.419871 0.000000
0.928033 0.419871 0.000000
0.984104 0.419871 0.000000
1.000000 0.419871 0.000000
0.109063 0.478395 0.000000
0.172100 0.478395 0.000000
0.233526 0.478395 0.000000
0.293924 0.478395 0.000000
0.353567 0.478395 0.000000
0.412616 0.478395 0.000000
0.471174 0.478395 0.000000
0.529315 0.478395 0.000000
0.587094 0.478395 0.000000
0.644553 0.478395 0.000000
0.701725 0.478395 0.000000
0.758639 0.478395 0.000000
0.815315 0.478395 0.000000
0.871775 0.478395 0.000000
0.928033 0.478395 0.000000
0.984104 0.478395 0.000000
1.000000 0.478395 0.000000
0.109063 0.536773 0.000000
0.172100 0.536773 0.000000
0.233526 0.536773 0.000000
0.293924 0.536773 0.000000
0.353567 0.536773 0.000000
0.412616 0.536773 0.000000
0.471174 0.536773 0.000000
0.529315 0.536773 0.000000
0.587094 0.536773 0.000000
0.644553 0.536773 0.000000
0.701725 0.536773 0.000000
0.758639 0.536773 0.000000
0.815315 0.536773 0.000000
0.871775 0.536773 0.000000
0.928033 0.536773 0.000000
0.984104 0.536773 0.000000
1.000000 0.536773 0.000000
0.109063 0.595021 0.000000
0.172100 0.595021 0.000000
0.233526 0.595021 0.000000
0.293924 0.595021 0.000000
0.353567 0.595021 0.000000
0.412616 0.595021 0.000000
0.471174 0.595021 0.000000
0.529315 0.595021 0.000000
0.587094 0.595021 0.000000
0.644553 0.595021 0.000000
0.701725 0.595021 0.000000
0.758639 0.595021 0.000000
0.815315 0.595021 0.000000
0.871775 0.595021 0.000000
0.928033 0.595021 0.000000
0.984104 0.595021 0.000000
1.000000 0.595021 0.000000
0.109063 0.653153 0.000000
0.172100 0.653153 0.000000
0.233526 0.653153 0.000000
0.293924 0.653153 0.000000
0.353567 0.653153 0.000000
0.412616 0.653153 0.000000
0.471174 0.653153 0.000000
0.529315 0.653153 0.000000
0.587094 0.653153 0.000000
0.644553 0.653153 0.000000
0.701725 0.653153 0.000000
0.758639 0.653153 0.000000
0.815315 0.653153 0.000000
0.871775 0.653153 0.000000
0.928033 0.653153 0.000000
0.984104 0.653153 0.000000
1.000000 0.653153 0.000000
0.109063 0.711180 0.000000
0.172100 0.711180 0.000000
0.233526 0.711180 0.000000
0.293924 0.711180 0.000000
0.353567 0.711180 0.000000
0.412616 0.711180 0.000000
0.471174 0.711180 0.000000
0.529315 0.711180 0.000000
0.587094 0.711180 0.000000
0.644553 0.711180 0.000000
0.701725 0.711180 0.000000
0.758639 0.711180 0.000000
0.815315 0.711180 0.000000
0.871775 0.711180 0.000000
0.928033 0.711180 0.000000
0.984104 0.711180 0.000000
1.000000 0.711180 0.000000
0.109063 0.769110 0.000000
0.172100 0.769110 0.000000
0.233526 0.769110 0.000000
0.293924 0.769110 0.000000
0.353567 0.769110 0.000000
0.412616 0.769110 0.000000
0.471174 0.769110 0.000000
0.529315 0.769110 0.000000
0.587094 0.769110 0.000000
0.644553 0.769110 0.000000
0.701725 0.769110 0.000000
0.758639 0.769110 0.000000
0.815315 0.769110 0.000000
0.871775 0.769110 0.000000
0.928033 0.769110 0.000000
0.984104 0.769110 0.000000
1.000000 0.769110 0.000000
0.109063 0.826951 0.000000
0.172100 0.826951 0.000000
0.233526 0.826951 0.000000
0.293924 0.826951 0.000000
0.353567 0.826951 0.000000
0.412616 0.826951 0.000000
0.471174 0.826951 0.000000
0.529315 0.826951 0.000000
0.587094 0.826951 0.000000
0.644553 0.826951 0.000000
0.701725 0.826951 0.000000
0.758639 0.826951 0.000000
0.815315 0.826951 0.000000
0.871775 0.826951 0.000000
0.928033 0.826951 0.000000
0.984104 0.826951 0.000000
1.000000 0.826951 0.000000
0.109063 0.884709 0.000000
0.172100 0.884709 0.000000
0.233526 0.884709 0.000000
0.293924 0.884709 0.000000
0.353567 0.884709 0.000000
0.412616 0.884709 0.000000
0.471174 0.884709 0.000000
0.529315 0.884709 0.000000
0.587094 0.884709 0.000000
0.644553 0.884709 0.000000
0.701725 0.884709 0.000000
0.758639 0.884709 0.000000
0.815315 0.884709 0.000000
0.871775 0.884709 0.000000
0.928033 0.884709 0.000000
0.984104 0.884709 0.000000
1.000000 0.884709 0.000000
0.109063 0.942390 0.000000
0.172100 0.942390 0.000000
0.233526 0.942390 0.000000
0.293924 0.942390 0.000000
0.353567 0.942390 0.000000
0.412616 0.942390 0.000000
0.471174 0.942390 0.000000
0.529315 0.942390 0.000000
0.587094 0.942390 0.000000
0.644553 0.942390 0.000000
0.701725 0.942390 0.000000
0.758639 0.942390 0.000000
0.815315 0.942390 0.000000
0.871775 0.942390 0.000000
0.928033 0.942390 0.000000
0.984104 0.942390 0.000000
1.000000 0.942390 0.000000
0.109063 1.000000 0.000000
0.172100 1.000000 0.000000
0.233526 1.000000 0.000000
0.293924 1.000000 0.000000
0.353567 1.000000 0.000000
0.412616 1.000000 0.000000
0.471174 1.000000 0.000000
0.529315 1.000000 0.000000
0.587094 1.000000 0.000000
0.644553 1.000000 0.000000
0.701725 1.000000 0.000000
0.758639 1.000000 0.000000
0.815315 1.000000 0.000000
0.871775 1.000000 0.000000
0.928033 1.000000 0.000000
0.984104 1.000000 0.000000
1.000000 1.000000 0.000000
0.109063 0.063473 0.040139
0.172100 0.063473 0.040139
0.233526 0.063473 0.040139
0.293924 0.063473 0.040139
0.353567 0.063473 0.040139
0.412616 0.063473 0.040139
0.471174 0.063473 0.040139
0.529315 0.063473 0.040139
0.587094 0.063473 0.040139
0.644553 0.063473 0.040139
0.701725 0.063473 0.040139
0.758639 0.063473 0.040139
0.815315 0.063473 0.040139
0.871775 0.063473 0.040139
0.928033 0.063473 0.040139
0.984104 0.063473 0.040139
1.000000 0.063473 0.040139
0.109063 0.123920 0.040139
0.172100 0.123920 0.040139
0.233526 0.123920 0.040139
0.293924 0.123920 0.040139
0.353567 0.123920 0.040139
0.412616 0.123920 0.040139
0.471174 0.123920 0.040139
0.529315 0.123920 0.040139
0.587094 0.123920 0.040139
0.644553 0.123920 0.040139
0.701725 0.123920 0.040139
0.758639 0.123920 0.040139
0.815315 0.123920 0.040139
0.871775 0.123920 0.040139
0.928033 0.123920 0.040139
0.984104 0.123920 0.040139
1.000000 0.123920 0.040139
0.109063 0.183745 0.040139
0.172100 0.183745 0.040139
0.233526 0.183745 0.040139
0.293924 0.183745 0.040139
0.353567 0.183745 0.040139
0.412616 0.183745 0.040139
0.471174 0.183745 0.040139
0.529315 0.183745 0.040139
0.587094 0.183745 0.040139
0.644553 0.183745 0.040139
0.701725 0.183745 0.040139
0.758639 0.183745 0.040139
0.815315 0.183745 0.040139
0.871775 0.183745 0.040139
0.928033 0.183745 0.040139
0.984104 0.183745 0.040139
1.000000 0.183745 0.040139
0.109063 0.243167 0.040139
0.172100 0.243167 0.040139
0.233526 0.243167 0.040139
0.293924 0.243167 0.040139
0.353567 0.243167 0.040139
0.412616 0.243167 0.040139
0.471174 0.243167 0.040139
0.529315 0.243167 0.040139
0.587094 0.243167 0.040139
0.644553 0.243167 0.040139
0.701725 0.243167 0.040139
0.758639 0.243167 0.040139
0.815315 0.243167 0.040139
0.871775 0.243167 0.040139
0.928033 0.243167 0.040139
0.984104 0.243167 0.040139
1.000000 0.243167 0.040139
0.109063 0.302291 0.040139
0.172100 0.302291 0.040139
0.233526 0.302291 0.040139
0.293924 0.302291 0.040139
0.353567 0.302291 0.040139
0.412616 0.302291 0.040139
0.471174 0.302291 0.040139
0.529315 0.302291 0.040139
0.587094 0.302291 0.040139
0.644553 0.302291 0.040139
0.701725 0.302291 0.040139
0.758639 0.302291 0.040139
0.815315 0.302291 0.040139
0.871775 0.302291 0.040139
0.928033 0.302291 0.040139
0.984104 0.302291 0.040139
1.000000 0.302291 0.040139
0.109063 0.361179 0.040139
0.172100 0.361179 0.040139
0.233526 0.361179 0.040139
0.293924 0.361179 0.040139
0.353567 0.361179 0.040139
0.412616 0.361179 0.040139
0.471174 0.361179 0.040139
0.529315 0.361179 0.040139
0.587094 0.361179 0.040139
0.644553 0.361179 0.040139
0.701725 0.361179 0.040139
0.758639 0.361179 0.040139
0.815315 0.361179 0.040139
0.871775 0.361179 0.040139
0.928033 0.361179 0.040139
0.984104 0.361179 0.040139
1.000000 0.361179 0.040139
0.109063 0.419871 0.040139
0.172100 0.419871 0.040139
0.233526 0.419871 0.040139
0.293924 0.419871 0.040139
0.353567 0.419871 0.040139
0.412616 0.419871 0.040139
0.471174 0.419871 0.040139
0.529315 0.419871 0.040139
0.587094 0.419871 0.040139
0.644553 0.419871 0.040139
0.701725 0.419871 0.040139
0.758639 0.419871 0.040139
0.815315 0.419871 0.040139
0.871775 0.419871 0.040139
0.928033 0.419871 0.040139
0.984104 0.419871 0.040139
1.000000 0.419871 0.040139
0.109063 0.478395 0.040139
0.172100 0.478395 0.040139
0.233526 0.478395 0.040139
0.293924 0.478395 0.040139
0.353567 0.478395 0.040139
0.412616 0.478395 0.040139
0.471174 0.478395 0.040139
0.529315 0.478395 0.040139
0.587094 0.478395 0.040139
0.644553 0.478395 0.040139
0.701725 0.478395 0.040139
0.758639 0.478395 0.040139
0.815315 0.478395 0.040139
0.871775 0.478395 0.040139
0.928033 0.478395 0.040139
0.984104 0.478395 0.040139
1.000000 0.478395 0.040139
0.109063 0.536773 0.040139
0.172100 0.536773 0.040139
0.233526 0.536773 0.040139
0.293924 0.536773 0.040139
0.353567 0.536773 0.040139
0.412616 0.536773 0.040139
0.471174 0.536773 0.040139
0.529315 0.536773 0.040139
0.587094 0.536773 0.040139
0.644553 0.536773 0.040139
0.701725 0.536773 0.040139
0.758639 0.536773 0.040139
0.815315 0.536773 0.040139
0.871775 0.536773 0.040139
0.928033 0.536773 0.040139
0.984104 0.536773 0.040139
1.000000 0.536773 0.040139
0.109063 0.595021 0.040139
0.172100 0.595021 0.040139
0.233526 0.595021 0.040139
0.293924 0.595021 0.040139
0.353567 0.595021 0.040139
0.412616 0.595021 0.040139
0.471174 0.595021 0.040139
0.529315 0.595021 0.040139
0.587094 0.595021 0.040139
0.644553 0.595021 0.040139
0.701725 0.595021 0.040139
0.758639 0.595021 0.040139
0.815315 0.595021 0.040139
0.871775 0.595021 0.040139
0.928033 0.595021 0.040139
0.984104 0.595021 0.040139
1.000000 0.595021 0.040139
0.109063 0.653153 0.040139
0.172100 0.653153 0.040139
0.233526 0.653153 0.040139
0.293924 0.653153 0.040139
0.353567 0.653153 0.040139
0.412616 0.653153 0.040139
0.471174 0.653153 0.040139
0.529315 0.653153 0.040139
0.587094 0.653153 0.040139
0.644553 0.653153 0.040139
0.701725 0.653153 0.040139
0.758639 0.653153 0.040139
0.815315 0.653153 0.040139
0.871775 0.653153 0.040139
0.928033 0.653153 0.040139
0.984104 0.653153 0.040139
1.000000 0.653153 0.040139
0.109063 0.711180 0.040139
0.172100 0.711180 0.040139
0.233526 0.711180 0.040139
0.293924 0.711180 0.040139
0.353567 0.711180 0.040139
0.412616 0.711180 0.040139
0.471174 0.711180 0.040139
0.529315 0.711180 0.040139
0.587094 0.711180 0.040139
0.644553 0.711180 0.040139
0.701725 0.711180 0.040139
0.758639 0.711180 0.040139
0.815315 0.711180 0.040139
0.871775 0.711180 0.040139
0.928033 0.711180 0.040139
0.984104 0.711180 0.040139
1.000000 0.711180 0.040139
0.109063 0.769110 0.040139
0.172100 0.769110 0.040139
0.233526 0.769110 0.040139
0.293924 0.769110 0.040139
0.353567 0.769110 0.040139
0.412616 0.769110 0.040139
0.471174 0.769110 0.040139
0.529315 0.769110 0.040139
0.587094 0.769110 0.040139
0.644553 0.769110 0.040139
0.701725 0.769110 0.040139
0.758639 0.769110 0.040139
0.815315 0.769110 0.040139
0.871775 0.769110 0.040139
0.928033 0.769110 0.040139
0.984104 0.769110 0.040139
1.000000 0.769110 0.040139
0.109063 0.826951 0.040139
0.172100 0.826951 0.040139
0.233526 0.826951 0.040139
0.293924 0.826951 0.040139
0.353567 0.826951 0.040139
0.412616 0.826951 0.040139
0.471174 0.826951 0.040139
0.529315 0.826951 0.040139
0.587094 0.826951 0.040139
0.644553 0.826951 0.040139
0.701725 0.826951 0.040139
0.758639 0.826951 0.040139
0.815315 0.826951 0.040139
0.871775 0.826951 0.040139
0.928033 0.826951 0.040139
0.984104 0.826951 0.040139
1.000000 0.826951 0.040139
0.109063 0.884709 0.040139
0.172100 0.884709 0.040139
0.233526 0.884709 0.040139
0.293924 0.884709 0.040139
0.353567 0.884709 0.040139
0.412616 0.884709 0.040139
0.471174 0.884709 0.040139
0.529315 0.884709 0.040139
0.587094 0.884709 0.040139
0.644553 0.884709 0.040139
0.701725 0.884709 0.040139
0.758639 0.884709 0.040139
0.815315 0.884709 0.040139
0.871775 0.884709 0.040139
0.928033 0.884709 0.040139
0.984104 0.884709 0.040139
1.000000 0.884709 0.040139
0.109063 0.942390 0.040139
0.172100 0.942390 0.040139
0.233526 0.942390 0.040139
0.293924 0.942390 0.040139
0.353567 0.942390 0.040139
0.412616 0.942390 0.040139
0.471174 0.942390 0.040139
0.529315 0.942390 0.040139
0.587094 0.942390 0.040139
0.644553 0.942390 0.040139
0.701725 0.942390 0.040139
0.758639 0.942390 0.040139
0.815315 0.942390 0.040139
0.871775 0.942390 0.040139
0.928033 0.942390 0.040139
0.984104 0.942390 0.040139
1.000000 0.942390 0.040139
0.109063 1.000000 0.040139
0.172100 1.000000 0.040139
0.233526 1.000000 0.040139
0.293924 1.000000 0.040139
0.353567 1.000000 0.040139
0.412616 1.000000 0.040139
0.471174 1.000000 0.040139
0.529315 1.000000 0.040139
0.587094 1.000000 0.040139
0.644553 1.000000 0.040139
0.701725 1.000000 0.040139
0.758639 1.000000 0.040139
0.815315 1.000000 0.040139
0.871775 1.000000 0.040139
0.928033 1.000000 0.040139
0.984104 1.000000 0.040139
1.000000 1.000000 0.040139
0.109063 0.063473 0.094573
0.172100 0.063473 0.094573
0.233526 0.063473 0.094573
0.293924 0.063473 0.094573
0.353567 0.063473 0.094573
0.412616 0.063473 0.094573
0.471174 0.063473 0.094573
0.529315 0.063473 0.094573
0.587094 0.063473 0.094573
0.644553 0.063473 0.094573
0.701725 0.063473 0.094573
0.758639 0.063473 0.094573
0.815315 0.063473 0.094573
0.871775 0.063473 0.094573
0.928033 0.063473 0.094573
0.984104 0.063473 0.094573
1.000000 0.063473 0.094573
0.109063 0.123920 0.094573
0.172100 0.123920 0.094573
0.233526 0.123920 0.094573
0.293924 0.123920 0.094573
0.353567 0.123920 0.094573
0.412616 0.123920 0.094573
0.471174 0.123920 0.094573
0.529315 0.123920 0.094573
0.587094 0.123920 0.094573
0.644553 0.123920 0.094573
0.701725 0.123920 0.094573
0.758639 0.123920 0.094573
0.815315 0.123920 0.094573
0.871775 0.123920 0.094573
0.928033 0.123920 0.094573
0.984104 0.123920 0.094573
1.000000 0.123920 0.094573
0.109063 0.183745 0.094573
0.172100 0.183745 0.094573
0.233526 0.183745 0.094573
0.293924 0.183745 0.094573
0.353567 0.183745 0.094573
0.412616 0.183745 0.094573
0.471174 0.183745 0.094573
0.529315 0.183745 0.094573
0.587094 0.183745 0.094573
0.644553 0.183745 0.094573
0.701725 0.183745 0.094573
0.758639 0.183745 0.094573
0.815315 0.183745 0.094573
0.871775 0.183745 0.094573
0.928033 0.183745 0.094573
0.984104 0.183745 0.094573
1.000000 0.183745 0.094573
0.109063 0.243167 0.094573
0.172100 0.243167 0.094573
0.233526 0.243167 0.094573
0.293924 0.243167 0.094573
0.353567 0.243167 0.094573
0.412616 0.243167 0.094573
0.471174 0.243167 0.094573
0.529315 0.243167 0.094573
0.587094 0.243167 0.094573
0.644553 0.243167 0.094573
0.701725 0.243167 0.094573
0.758639 0.243167 0.094573
0.815315 0.243167 0.094573
0.871775 0.243167 0.094573
0.928033 0.243167 0.094573
0.984104 0.243167 0.094573
1.000000 0.243167 0.094573
0.109063 0.302291 0.094573
0.172100 0.302291 0.094573
0.233526 0.302291 0.094573
0.293924 0.302291 0.094573
0.353567 0.302291 0.094573
0.412616 0.302291 0.094573
0.471174 0.302291 0.094573
0.529315 0.302291 0.094573
0.587094 0.302291 0.094573
0.644553 0.302291 0.094573
0.701725 0.302291 0.094573
0.758639 0.302291 0.094573
0.815315 0.302291 0.094573
0.871775 0.302291 0.094573
0.928033 0.302291 0.094573
0.984104 0.302291 0.094573
1.000000 0.302291 0.094573
0.109063 0.361179 0.094573
0.172100 0.361179 0.094573
0.233526 0.361179 0.094573
0.293924 0.361179 0.094573
0.353567 0.361179 0.094573
0.412616 0.361179 0.094573
0.471174 0.361179 0.094573
0.529315 0.361179 0.094573
0.587094 0.361179 0.094573
0.644553 0.361179 0.094573
0.701725 0.361179 0.094573
0.758639 0.361179 0.094573
0.815315 0.361179 0.094573
0.871775 0.361179 0.094573
0.928033 0.361179 0.094573
0.984104 0.361179 0.094573
1.000000 0.361179 0.094573
0.109063 0.419871 0.094573
0.172100 0.419871 0.094573
0.233526 0.419871 0.094573
0.293924 0.419871 0.094573
0.353567 0.419871 0.094573
0.412616 0.419871 0.094573
0.471174 0.419871 0.094573
0.529315 0.419871 0.094573
0.587094 0.419871 0.094573
0.644553 0.419871 0.094573
0.701725 0.419871 0.094573
0.758639 0.419871 0.094573
0.815315 0.419871 0.094573
0.871775 0.419871 0.094573
0.928033 0.419871 0.094573
0.984104 0.419871 0.094573
1.000000 0.419871 0.094573
0.109063 0.478395 0.094573
0.172100 0.478395 0.094573
0.233526 0.478395 0.094573
0.293924 0.478395 0.094573
0.353567 0.478395 0.094573
0.412616 0.478395 0.094573
0.471174 0.478395 0.094573
0.529315 0.478395 0.094573
0.587094 0.478395 0.094573
0.644553 0.478395 0.094573
0.701725 0.478395 0.094573
0.758639 0.478395 0.094573
0.815315 0.478395 0.094573
0.871775 0.478395 0.094573
0.928033 0.478395 0.094573
0.984104 0.478395 0.094573
1.000000 0.478395 0.094573
0.109063 0.536773 0.094573
0.172100 0.536773 0.094573
0.233526 0.536773 0.094573
0.293924 0.536773 0.094573
0.353567 0.536773 0.094573
0.412616 0.536773 0.094573
0.471174 0.536773 0.094573
0.529315 0.536773 0.094573
0.587094 0.536773 0.094573
0.644553 0.536773 0.094573
0.701725 0.536773 0.094573
0.758639 0.536773 0.094573
0.815315 0.536773 0.094573
0.871775 0.536773 0.094573
0.928033 0.536773 0.094573
0.984104 0.536773 0.094573
1.000000 0.536773 0.094573
0.109063 0.595021 0.094573
0.172100 0.595021 0.094573
0.233526 0.595021 0.094573
0.293924 0.595021 0.094573
0.353567 0.595021 0.094573
0.412616 0.595021 0.094573
0.471174 0.595021 0.094573
0.529315 0.595021 0.094573
0.587094 0.595021 0.094573
0.644553 0.595021 0.094573
0.701725 0.595021 0.094573
0.758639 0.595021 0.094573
0.815315 0.595021 0.094573
0.871775 0.595021 0.094573
0.928033 0.595021 0.094573
0.984104 0.595021 0.094573
1.000000 0.595021 0.094573
0.109063 0.653153 0.094573
0.172100 0.653153 0.094573
0.233526 0.653153 0.094573
0.293924 0.653153 0.094573
0.353567 0.653153 0.094573
0.412616 0.653153 0.094573
0.471174 0.653153 0.094573
0.529315 0.653153 0.094573
0.587094 0.653153 0.094573
0.644553 0.653153 0.094573
0.701725 0.653153 0.094573
0.758639 0.653153 0.094573
0.815315 0.653153 0.094573
0.871775 0.653153 0.094573
0.928033 0.653153 0.094573
0.984104 0.653153 0.094573
1.000000 0.653153 0.094573
0.109063 0.711180 0.094573
0.172100 0.711180 0.094573
0.233526 0.711180 0.094573
0.293924 0.711180 0.094573
0.353567 0.711180 0.094573
0.412616 0.711180 0.094573
0.471174 0.711180 0.094573
0.529315 0.711180 0.094573
0.587094 0.711180 0.094573
0.644553 0.711180 0.094573
0.701725 0.711180 0.094573
0.758639 0.711180 0.094573
0.815315 0.711180 0.094573
0.871775 0.711180 0.094573
0.928033 0.711180 0.094573
0.984104 0.711180 0.094573
1.000000 0.711180 0.094573
0.109063 0.769110 0.094573
0.172100 0.769110 0.094573
0.233526 0.769110 0.094573
0.293924 0.769110 0.094573
0.353567 0.769110 0.094573
0.412616 0.769110 0.094573
0.471174 0.769110 0.094573
0.529315 0.769110 0.094573
0.587094 0.769110 0.094573
0.644553 0.769110 0.094573
0.701725 0.769110 0.094573
0.758639 0.769110 0.094573
0.815315 0.769110 0.094573
0.871775 0.769110 0.094573
0.928033 0.769110 0.094573
0.984104 0.769110 0.094573
1.000000 0.769110 0.094573
0.109063 0.826951 0.094573
0.172100 0.826951 0.094573
0.233526 0.826951 0.094573
0.293924 0.826951 0.094573
0.353567 0.826951 0.094573
0.412616 0.826951 0.094573
0.471174 0.826951 0.094573
0.529315 0.826951 0.094573
0.587094 0.826951 0.094573
0.644553 0.826951 0.094573
0.701725 0.826951 0.094573
0.758639 0.826951 0.094573
0.815315 0.826951 0.094573
0.871775 0.826951 0.094573
0.928033 0.826951 0.094573
0.984104 0.826951 0.094573
1.000000 0.826951 0.094573
0.109063 0.884709 0.094573
0.172100 0.884709 0.094573
0.233526 0.884709 0.094573
0.293924 0.884709 0.094573
0.353567 0.884709 0.094573
0.412616 0.884709 0.094573
0.471174 0.884709 0.094573
0.529315 0.884709 0.094573
0.587094 0.884709 0.094573
0.644553 0.884709 0.094573
0.701725 0.884709 0.094573
0.758639 0.884709 0.094573
0.815315 0.884709 0.094573
0.871775 0.884709 0.094573
0.928033 0.884709 0.094573
0.984104 0.884709 0.094573
1.000000 0.884709 0.094573
0.109063 0.942390 0.094573
0.172100 0.942390 0.094573
0.233526 0.942390 0.094573
0.293924 0.942390 0.094573
0.353567 0.942390 0.094573
0.412616 0.942390 0.094573
0.471174 0.942390 0.094573
0.529315 0.942390 0.094573
0.587094 0.942390 0.094573
0.644553 0.942390 0.094573
0.701725 0.942390 0.094573
0.758639 0.942390 0.094573
0.815315 0.942390 0.094573
0.871775 0.942390 0.094573
0.928033 0.942390 0.094573
0.984104 0.942390 0.094573
1.000000 0.942390 0.094573
0.109063 1.000000 0.094573
0.172100 1.000000 0.094573
0.233526 1.000000 0.094573
0.293924 1.000000 0.094573
0.353567 1.000000 0.094573
0.412616 1.000000 0.094573
0.471174 1.000000 0.094573
0.529315 1.000000 0.094573
0.587094 1.000000 0.094573
0.644553 1.000000 0.094573
0.701725 1.000000 0.094573
0.758639 1.000000 0.094573
0.815315 1.000000 0.094573
0.871775 1.000000 0.094573
0.928033 1.000000 0.094573
0.984104 1.000000 0.094573
1.000000 1.000000 0.094573
0.109063 0.063473 0.150495
0.172100 0.063473 0.150495
0.233526 0.063473 0.150495
0.293924 0.063473 0.150495
0.353567 0.063473 0.150495
0.412616 0.063473 0.150495
0.471174 0.063473 0.150495
0.529315 0.063473 0.150495
0.587094 0.063473 0.150495
0.644553 0.063473 0.150495
0.701725 0.063473 0.150495
0.758639 0.063473 0.150495
0.815315 0.063473 0.150495
0.871775 0.063473 0.150495
0.928033 0.063473 0.150495
