assets/luts/vintage.cube
# Vintage Warm
# Generated by Sprint 16-C2 LUT preset generator. Cube size 17.
TITLE "Vintage Warm"
LUT_3D_SIZE 9
DOMAIN_MIN 0.0 0.0 0.0
DOMAIN_MAX 1.0 1.0 1.0
0.109063 0.063473 0.000000
0.233526 0.063473 0.000000
0.353567 0.063473 0.000000
0.471174 0.063473 0.000000
0.587094 0.063473 0.000000
0.701725 0.063473 0.000000
0.815315 0.063473 0.000000
0.928033 0.063473 0.000000
1.000000 0.063473 0.000000
0.109063 0.183745 0.000000
0.233526 0.183745 0.000000
0.353567 0.183745 0.000000
0.471174 0.183745 0.000000
0.587094 0.183745 0.000000
0.701725 0.183745 0.000000
0.815315 0.183745 0.000000
0.928033 0.183745 0.000000
1.000000 0.183745 0.000000
0.109063 0.302291 0.000000
0.233526 0.302291 0.000000
0.353567 0.302291 0.000000
0.471174 0.302291 0.000000
0.587094 0.302291 0.000000
0.701725 0.302291 0.000000
0.815315 0.302291 0.000000
0.928033 0.302291 0.000000
1.000000 0.302291 0.000000
0.109063 0.419871 0.000000
0.233526 0.419871 0.000000
0.353567 0.419871 0.000000
0.471174 0.419871 0.000000
0.587094 0.419871 0.000000
0.701725 0.419871 0.000000
0.815315 0.419871 0.000000
0.928033 0.419871 0.000000
1.000000 0.419871 0.000000
0.109063 0.536773 0.000000
0.233526 0.536773 0.000000
0.353567 0.536773 0.000000
0.471174 0.536773 0.000000
0.587094 0.536773 0.000000
0.701725 0.536773 0.000000
0.815315 0.536773 0.000000
0.928033 0.536773 0.000000
1.000000 0.536773 0.000000
0.109063 0.653153 0.000000
0.233526 0.653153 0.000000
0.353567 0.653153 0.000000
0.471174 0.653153 0.000000
0.587094 0.653153 0.000000
0.701725 0.653153 0.000000
0.815315 0.653153 0.000000
0.928033 0.653153 0.000000
1.000000 0.653153 0.000000
0.109063 0.769110 0.000000
0.233526 0.769110 0.000000
0.353567 0.769110 0.000000
0.471174 0.769110 0.000000
0.587094 0.769110 0.000000
0.701725 0.769110 0.000000
0.815315 0.769110 0.000000
0.928033 0.769110 0.000000
1.000000 0.769110 0.000000
0.109063 0.884709 0.000000
0.233526 0.884709 0.000000
0.353567 0.884709 0.000000
0.471174 0.884709 0.000000
0.587094 0.884709 0.000000
0.701725 0.884709 0.000000
0.815315 0.884709 0.000000
0.928033 0.884709 0.000000
1.000000 0.884709 0.000000
0.109063 1.000000 0.000000
0.233526 1.000000 0.000000
0.353567 1.000000 0.000000
0.471174 1.000000 0.000000
0.587094 1.000000 0.000000
0.701725 1.000000 0.000000
0.815315 1.000000 0.000000
0.928033 1.000000 0.000000
1.000000 1.000000 0.000000
0.109063 0.063473 0.094573
0.233526 0.063473 0.094573
0.353567 0.063473 0.094573
0.471174 0.063473 0.094573
0.587094 0.063473 0.094573
0.701725 0.063473 0.094573
0.815315 0.063473 0.094573
0.928033 0.063473 0.094573
1.000000 0.063473 0.094573
0.109063 0.183745 0.094573
0.233526 0.183745 0.094573
0.353567 0.183745 0.094573
0.471174 0.183745 0.094573
0.587094 0.183745 0.094573
0.701725 0.183745 0.094573
0.815315 0.183745 0.094573
0.928033 0.183745 0.094573
1.000000 0.183745 0.094573
0.109063 0.302291 0.094573
0.233526 0.302291 0.094573
0.353567 0.302291 0.094573
0.471174 0.302291 0.094573
0.587094 0.302291 0.094573
0.701725 0.302291 0.094573
0.815315 0.302291 0.094573
0.928033 0.302291 0.094573
1.000000 0.302291 0.094573
0.109063 0.419871 0.094573
0.233526 0.419871 0.094573
0.353567 0.419871 0.094573
0.471174 0.419871 0.094573
0.587094 0.419871 0.094573
0.701725 0.419871 0.094573
0.815315 0.419871 0.094573
0.928033 0.419871 0.094573
1.000000 0.419871 0.094573
0.109063 0.536773 0.094573
0.233526 0.536773 0.094573
0.353567 0.536773 0.094573
0.471174 0.536773 0.094573
0.587094 0.536773 0.094573
0.701725 0.536773 0.094573
0.815315 0.536773 0.094573
0.928033 0.536773 0.094573
1.000000 0.536773 0.094573
0.109063 0.653153 0.094573
0.233526 0.653153 0.094573
0.353567 0.653153 0.094573
0.471174 0.653153 0.094573
0.587094 0.653153 0.094573
0.701725 0.653153 0.094573
0.815315 0.653153 0.094573
0.928033 0.653153 0.094573
1.000000 0.653153 0.094573
0.109063 0.769110 0.094573
0.233526 0.769110 0.094573
0.353567 0.769110 0.094573
0.471174 0.769110 0.094573
0.587094 0.769110 0.094573
0.701725 0.769110 0.094573
0.815315 0.769110 0.094573
0.928033 0.769110 0.094573
1.000000 0.769110 0.094573
0.109063 0.884709 0.094573
0.233526 0.884709 0.094573
0.353567 0.884709 0.094573
0.471174 0.884709 0.094573
0.587094 0.884709 0.094573
0.701725 0.884709 0.094573
0.815315 0.884709 0.094573
0.928033 0.884709 0.094573
1.000000 0.884709 0.094573
0.109063 1.000000 0.094573
0.233526 1.000000 0.094573
0.353567 1.000000 0.094573
0.471174 1.000000 0.094573
0.587094 1.000000 0.094573
0.701725 1.000000 0.094573
0.815315 1.000000 0.094573
0.928033 1.000000 0.094573
1.000000 1.000000 0.094573
0.109063 0.063473 0.207552
0.233526 0.063473 0.207552
0.353567 0.063473 0.207552
0.471174 0.063473 0.207552
0.587094 0.063473 0.207552
0.701725 0.063473 0.207552
0.815315 0.063473 0.207552
0.928033 0.063473 0.207552
1.000000 0.063473 0.207552
0.109063 0.183745 0.207552
0.233526 0.183745 0.207552
0.353567 0.183745 0.207552
0.471174 0.183745 0.207552
0.587094 0.183745 0.207552
0.701725 0.183745 0.207552
0.815315 0.183745 0.207552
0.928033 0.183745 0.207552
1.000000 0.183745 0.207552
0.109063 0.302291 0.207552
0.233526 0.302291 0.207552
0.353567 0.302291 0.207552
0.471174 0.302291 0.207552
0.587094 0.302291 0.207552
0.701725 0.302291 0.207552
0.815315 0.302291 0.207552
0.928033 0.302291 0.207552
1.000000 0.302291 0.207552
0.109063 0.419871 0.207552
0.233526 0.419871 0.207552
0.353567 0.419871 0.207552
0.471174 0.419871 0.207552
0.587094 0.419871 0.207552
0.701725 0.419871 0.207552
0.815315 0.419871 0.207552
0.928033 0.419871 0.207552
1.000000 0.419871 0.207552
0.109063 0.536773 0.207552
0.233526 0.536773 0.207552
0.353567 0.536773 0.207552
0.471174 0.536773 0.207552
0.587094 0.536773 0.207552
0.701725 0.536773 0.207552
0.815315 0.536773 0.207552
0.928033 0.536773 0.207552
1.000000 0.536773 0.207552
0.109063 0.653153 0.207552
0.233526 0.653153 0.207552
0.353567 0.653153 0.207552
0.471174 0.653153 0.207552
0.587094 0.653153 0.207552
0.701725 0.653153 0.207552
0.815315 0.653153 0.207552
0.928033 0.653153 0.207552
1.000000 0.653153 0.207552
0.109063 0.769110 0.207552
0.233526 0.769110 0.207552
0.353567 0.769110 0.207552
0.471174 0.769110 0.207552
0.587094 0.769110 0.207552
0.701725 0.769110 0.207552
0.815315 0.769110 0.207552
0.928033 0.769110 0.207552
1.000000 0.769110 0.207552
0.109063 0.884709 0.207552
0.233526 0.884709 0.207552
0.353567 0.884709 0.207552
0.471174 0.884709 0.207552
0.587094 0.884709 0.207552
0.701725 0.884709 0.207552
0.815315 0.884709 0.207552
0.928033 0.884709 0.207552
1.000000 0.884709 0.207552
0.109063 1.000000 0.207552
0.233526 1.000000 0.207552
0.353567 1.000000 0.207552
0.471174 1.000000 0.207552
0.587094 1.000000 0.207552
0.701725 1.000000 0.207552
0.815315 1.000000 0.207552
0.928033 1.000000 0.207552
1.000000 1.000000 0.207552
0.109063 0.063473 0.324289
0.233526 0.063473 0.324289
0.353567 0.063473 0.324289
0.471174 0.063473 0.324289
0.587094 0.063473 0.324289
0.701725 0.063473 0.324289
0.815315 0.063473 0.324289
0.928033 0.063473 0.324289
1.000000 0.063473 0.324289
0.109063 0.183745 0.324289
0.233526 0.183745 0.324289
0.353567 0.183745 0.324289
0.471174 0.183745 0.324289
0.587094 0.183745 0.324289
0.701725 0.183745 0.324289
0.815315 0.183745 0.324289
0.928033 0.183745 0.324289
1.000000 0.183745 0.324289
0.109063 0.302291 0.324289
0.233526 0.302291 0.324289
0.353567 0.302291 0.324289
0.471174 0.302291 0.324289
0.587094 0.302291 0.324289
0.701725 0.302291 0.324289
0.815315 0.302291 0.324289
0.928033 0.302291 0.324289
1.000000 0.302291 0.324289
0.109063 0.419871 0.324289
0.233526 0.419871 0.324289
0.353567 0.419871 0.324289
0.471174 0.419871 0.324289
0.587094 0.419871 0.324289
0.701725 0.419871 0.324289
0.815315 0.419871 0.324289
0.928033 0.419871 0.324289
1.000000 0.419871 0.324289
0.109063 0.536773 0.324289
0.233526 0.536773 0.324289
0.353567 0.536773 0.324289
0.471174 0.536773 0.324289
0.587094 0.536773 0.324289
0.701725 0.536773 0.324289
0.815315 0.536773 0.324289
0.928033 0.536773 0.324289
1.000000 0.536773 0.324289
0.109063 0.653153 0.324289
0.233526 0.653153 0.324289
0.353567 0.653153 0.324289
0.471174 0.653153 0.324289
0.587094 0.653153 0.324289
0.701725 0.653153 0.324289
0.815315 0.653153 0.324289
0.928033 0.653153 0.324289
1.000000 0.653153 0.324289
0.109063 0.769110 0.324289
0.233526 0.769110 0.324289
0.353567 0.769110 0.324289
0.471174 0.769110 0.324289
0.587094 0.769110 0.324289
0.701725 0.769110 0.324289
0.815315 0.769110 0.324289
0.928033 0.769110 0.324289
1.000000 0.769110 0.324289
0.109063 0.884709 0.324289
0.233526 0.884709 0.324289
0.353567 0.884709 0.324289
0.471174 0.884709 0.324289
0.587094 0.884709 0.324289
0.701725 0.884709 0.324289
0.815315 0.884709 0.324289
0.928033 0.884709 0.324289
1.000000 0.884709 0.324289
0.109063 1.000000 0.324289
0.233526 1.000000 0.324289
0.353567 1.000000 0.324289
0.471174 1.000000 0.324289
0.587094 1.000000 0.324289
0.701725 1.000000 0.324289
0.815315 1.000000 0.324289
0.928033 1.000000 0.324289
1.000000 1.000000 0.324289
0.109063 0.063473 0.443753
0.233526 0.063473 0.443753
0.353567 0.063473 0.443753
0.471174 0.063473 0.443753
0.587094 0.063473 0.443753
0.701725 0.063473 0.443753
0.815315 0.063473 0.443753
0.928033 0.063473 0.443753
1.000000 0.063473 0.443753
0.109063 0.183745 0.443753
0.233526 0.183745 0.443753
0.353567 0.183745 0.443753
0.471174 0.183745 0.443753
0.587094 0.183745 0.443753
0.701725 0.183745 0.443753
0.815315 0.183745 0.443753
0.928033 0.183745 0.443753
1.000000 0.183745 0.443753
0.109063 0.302291 0.443753
0.233526 0.302291 0.443753
0.353567 0.302291 0.443753
0.471174 0.302291 0.443753
0.587094 0.302291 0.443753
0.701725 0.302291 0.443753
0.815315 0.302291 0.443753
0.928033 0.302291 0.443753
1.000000 0.302291 0.443753
0.109063 0.419871 0.443753
0.233526 0.419871 0.443753
0.353567 0.419871 0.443753
0.471174 0.419871 0.443753
0.587094 0.419871 0.443753
0.701725 0.419871 0.443753
0.815315 0.419871 0.443753
0.928033 0.419871 0.443753
1.000000 0.419871 0.443753
0.109063 0.536773 0.443753
0.233526 0.536773 0.443753
0.353567 0.536773 0.443753
0.471174 0.536773 0.443753
0.587094 0.536773 0.443753
0.701725 0.536773 0.443753
0.815315 0.536773 0.443753
0.928033 0.536773 0.443753
1.000000 0.536773 0.443753
0.109063 0.653153 0.443753
0.233526 0.653153 0.443753
0.353567 0.653153 0.443753
0.471174 0.653153 0.443753
0.587094 0.653153 0.443753
0.701725 0.653153 0.443753
0.815315 0.653153 0.443753
0.928033 0.653153 0.443753
1.000000 0.653153 0.443753
0.109063 0.769110 0.443753
0.233526 0.769110 0.443753
0.353567 0.769110 0.443753
0.471174 0.769110 0.443753
0.587094 0.769110 0.443753
0.701725 0.769110 0.443753
0.815315 0.769110 0.443753
0.928033 0.769110 0.443753
1.000000 0.769110 0.443753
0.109063 0.884709 0.443753
0.233526 0.884709 0.443753
0.353567 0.884709 0.443753
0.471174 0.884709 0.443753
0.587094 0.884709 0.443753
0.701725 0.884709 0.443753
0.815315 0.884709 0.443753
0.928033 0.884709 0.443753
1.000000 0.884709 0.443753
0.109063 1.000000 0.443753
0.233526 1.000000 0.443753
0.353567 1.000000 0.443753
0.471174 1.000000 0.443753
0.587094 1.000000 0.443753
0.701725 1.000000 0.443753
0.815315 1.000000 0.443753
0.928033 1.000000 0.443753
1.000000 1.000000 0.443753
0.109063 0.063473 0.565373
0.233526 0.063473 0.565373
0.353567 0.063473 0.565373
0.471174 0.063473 0.565373
0.587094 0.063473 0.565373
0.701725 0.063473 0.565373
0.815315 0.063473 0.565373
0.928033 0.063473 0.565373
1.000000 0.063473 0.565373
0.109063 0.183745 0.565373
0.233526 0.183745 0.565373
0.353567 0.183745 0.565373
0.471174 0.183745 0.565373
0.587094 0.183745 0.565373
0.701725 0.183745 0.565373
0.815315 0.183745 0.565373
0.928033 0.183745 0.565373
1.000000 0.183745 0.565373
0.109063 0.302291 0.565373
0.233526 0.302291 0.565373
0.353567 0.302291 0.565373
0.471174 0.302291 0.565373
0.587094 0.302291 0.565373
0.701725 0.302291 0.565373
0.815315 0.302291 0.565373
0.928033 0.302291 0.565373
1.000000 0.302291 0.565373
0.109063 0.419871 0.565373
0.233526 0.419871 0.565373
0.353567 0.419871 0.565373
0.471174 0.419871 0.565373
0.587094 0.419871 0.565373
0.701725 0.419871 0.565373
0.815315 0.419871 0.565373
0.928033 0.419871 0.565373
1.000000 0.419871 0.565373
0.109063 0.536773 0.565373
0.233526 0.536773 0.565373
0.353567 0.536773 0.565373
0.471174 0.536773 0.565373
0.587094 0.536773 0.565373
0.701725 0.536773 0.565373
0.815315 0.536773 0.565373
0.928033 0.536773 0.565373
1.000000 0.536773 0.565373
0.109063 0.653153 0.565373
0.233526 0.653153 0.565373
0.353567 0.653153 0.565373
0.471174 0.653153 0.565373
0.587094 0.653153 0.565373
0.701725 0.653153 0.565373
0.815315 0.653153 0.565373
0.928033 0.653153 0.565373
1.000000 0.653153 0.565373
0.109063 0.769110 0.565373
0.233526 0.769110 0.565373
0.353567 0.769110 0.565373
0.471174 0.769110 0.565373
0.587094 0.769110 0.565373
0.701725 0.769110 0.565373
0.815315 0.769110 0.565373
0.928033 0.769110 0.565373
1.000000 0.769110 0.565373
0.109063 0.884709 0.565373
0.233526 0.884709 0.565373
0.353567 0.884709 0.565373
0.471174 0.884709 0.565373
0.587094 0.884709 0.565373
0.701725 0.884709 0.565373
0.815315 0.884709 0.565373
0.928033 0.884709 0.565373
1.000000 0.884709 0.565373
0.109063 1.000000 0.565373
0.233526 1.000000 0.565373
0.353567 1.000000 0.565373
0.471174 1.000000 0.565373
0.587094 1.000000 0.565373
0.701725 1.000000 0.565373
0.815315 1.000000 0.565373
0.928033 1.000000 0.565373
1.000000 1.000000 0.565373
0.109063 0.063473 0.688780
0.233526 0.063473 0.688780
0.353567 0.063473 0.688780
0.471174 0.063473 0.688780
0.587094 0.063473 0.688780
0.701725 0.063473 0.688780
0.815315 0.063473 0.688780
0.928033 0.063473 0.688780
1.000000 0.063473 0.688780
0.109063 0.183745 0.688780
0.233526 0.183745 0.688780
0.353567 0.183745 0.688780
0.471174 0.183745 0.688780
0.587094 0.183745 0.688780
0.701725 0.183745 0.688780
0.815315 0.183745 0.688780
0.928033 0.183745 0.688780
1.000000 0.183745 0.688780
0.109063 0.302291 0.688780
0.233526 0.302291 0.688780
0.353567 0.302291 0.688780
0.471174 0.302291 0.688780
0.587094 0.302291 0.688780
0.701725 0.302291 0.688780
0.815315 0.302291 0.688780
0.928033 0.302291 0.688780
1.000000 0.302291 0.688780
0.109063 0.419871 0.688780
0.233526 0.419871 0.688780
0.353567 0.419871 0.688780
0.471174 0.419871 0.688780
0.587094 0.419871 0.688780
0.701725 0.419871 0.688780
0.815315 0.419871 0.688780
0.928033 0.419871 0.688780
1.000000 0.419871 0.688780
0.109063 0.536773 0.688780
0.233526 0.536773 0.688780
0.353567 0.536773 0.688780
0.471174 0.536773 0.688780
0.587094 0.536773 0.688780
0.701725 0.536773 0.688780
0.815315 0.536773 0.688780
0.928033 0.536773 0.688780
1.000000 0.536773 0.688780
0.109063 0.653153 0.688780
0.233526 0.653153 0.688780
0.353567 0.653153 0.688780
0.471174 0.653153 0.688780
0.587094 0.653153 0.688780
0.701725 0.653153 0.688780
0.815315 0.653153 0.688780
0.928033 0.653153 0.688780
1.000000 0.653153 0.688780
0.109063 0.769110 0.688780
0.233526 0.769110 0.688780
0.353567 0.769110 0.688780
0.471174 0.769110 0.688780
0.587094 0.769110 0.688780
0.701725 0.769110 0.688780
0.815315 0.769110 0.688780
0.928033 0.769110 0.688780
1.000000 0.769110 0.688780
0.109063 0.884709 0.688780
0.233526 0.884709 0.688780
0.353567 0.884709 0.688780
0.471174 0.884709 0.688780
0.587094 0.884709 0.688780
0.701725 0.884709 0.688780
0.815315 0.884709 0.688780
0.928033 0.884709 0.688780
1.000000 0.884709 0.688780
0.109063 1.000000 0.688780
0.233526 1.000000 0.688780
0.353567 1.000000 0.688780
0.471174 1.000000 0.688780
0.587094 1.000000 0.688780
0.701725 1.000000 0.688780
0.815315 1.000000 0.688780
0.928033 1.000000 0.688780
1.000000 1.000000 0.688780
0.109063 0.063473 0.813719
0.233526 0.063473 0.813719
0.353567 0.063473 0.813719
0.471174 0.063473 0.813719
0.587094 0.063473 0.813719
0.701725 0.063473 0.813719
0.815315 0.063473 0.813719
0.928033 0.063473 0.813719
1.000000 0.063473 0.813719
0.109063 0.183745 0.813719
0.233526 0.183745 0.813719
0.353567 0.183745 0.813719
0.471174 0.183745 0.813719
0.587094 0.183745 0.813719
0.701725 0.183745 0.813719
0.815315 0.183745 0.813719
0.928033 0.183745 0.813719
1.000000 0.183745 0.813719
0.109063 0.302291 0.813719
0.233526 0.302291 0.813719
0.353567 0.302291 0.813719
0.471174 0.302291 0.813719
0.587094 0.302291 0.813719
0.701725 0.302291 0.813719
0.815315 0.302291 0.813719
0.928033 0.302291 0.813719
1.000000 0.302291 0.813719
0.109063 0.419871 0.813719
0.233526 0.419871 0.813719
0.353567 0.419871 0.813719
0.471174 0.419871 0.813719
0.587094 0.419871 0.813719
0.701725 0.419871 0.813719
0.815315 0.419871 0.813719
0.928033 0.419871 0.813719
1.000000 0.419871 0.813719
0.109063 0.536773 0.813719
0.233526 0.536773 0.813719
0.353567 0.536773 0.813719
0.471174 0.536773 0.813719
0.587094 0.536773 0.813719
0.701725 0.536773 0.813719
0.815315 0.536773 0.813719
0.928033 0.536773 0.813719
1.000000 0.536773 0.813719
0.109063 0.653153 0.813719
0.233526 0.653153 0.813719
0.353567 0.653153 0.813719
0.471174 0.653153 0.813719
0.587094 0.653153 0.813719
0.701725 0.653153 0.813719
0.815315 0.653153 0.813719
0.928033 0.653153 0.813719
1.000000 0.653153 0.813719
0.109063 0.769110 0.813719
0.233526 0.769110 0.813719
0.353567 0.769110 0.813719
0.471174 0.769110 0.813719
0.587094 0.769110 0.813719
0.701725 0.769110 0.813719
0.815315 0.769110 0.813719
0.928033 0.769110 0.813719
1.000000 0.769110 0.813719
0.109063 0.884709 0.813719
0.233526 0.884709 0.813719
0.353567 0.884709 0.813719
0.471174 0.884709 0.813719
0.587094 0.884709 0.813719
0.701725 0.884709 0.813719
0.815315 0.884709 0.813719
0.928033 0.884709 0.813719
1.000000 0.884709 0.813719
0.109063 1.000000 0.813719
0.233526 1.000000 0.813719
0.353567 1.000000 0.813719
0.471174 1.000000 0.813719
0.587094 1.000000 0.813719
0.701725 1.000000 0.813719
0.815315 1.000000 0.813719
0.928033 1.000000 0.813719
1.000000 1.000000 0.813719
0.109063 0.063473 0.940000
0.233526 0.063473 0.940000
0.353567 0.063473 0.940000
0.471174 0.063473 0.940000
0.587094 0.063473 0.940000
0.701725 0.063473 0.940000
0.815315 0.063473 0.940000
0.928033 0.063473 0.940000
1.000000 0.063473 0.940000
0.109063 0.183745 0.940000
0.233526 0.183745 0.940000
0.353567 0.183745 0.940000
0.471174 0.183745 0.940000
0.587094 0.183745 0.940000
0.701725 0.183745 0.940000
0.815315 0.183745 0.940000
0.928033 0.183745 0.940000
1.000000 0.183745 0.940000
0.109063 0.302291 0.940000
0.233526 0.302291 0.940000
0.353567 0.302291 0.940000
0.471174 0.302291 0.940000
0.587094 0.302291 0.940000
0.701725 0.302291 0.940000
0.815315 0.302291 0.940000
0.928033 0.302291 0.940000
1.000000 0.302291 0.940000
0.109063 0.419871 0.940000
0.233526 0.419871 0.940000
0.353567 0.419871 0.940000
0.471174 0.419871 0.940000
0.587094 0.419871 0.940000
0.701725 0.419871 0.940000
0.815315 0.419871 0.940000
0.928033 0.419871 0.940000
1.000000 0.419871 0.940000
0.109063 0.536773 0.940000
0.233526 0.536773 0.940000
0.353567 0.536773 0.940000
0.471174 0.536773 0.940000
0.587094 0.536773 0.940000
0.701725 0.536773 0.940000
0.815315 0.536773 0.940000
0.928033 0.536773 0.940000
1.000000 0.536773 0.940000
0.109063 0.653153 0.940000
0.233526 0.653153 0.940000
0.353567 0.653153 0.940000
0.471174 0.653153 0.940000
0.587094 0.653153 0.940000
0.701725 0.653153 0.940000
0.815315 0.653153 0.940000
0.928033 0.653153 0.940000
1.000000 0.653153 0.940000
0.109063 0.769110 0.940000
0.233526 0.769110 0.940000
0.353567 0.769110 0.940000
0.471174 0.769110 0.940000
0.587094 0.769110 0.940000
0.701725 0.769110 0.940000
0.815315 0.769110 0.940000
0.928033 0.769110 0.940000
1.000000 0.769110 0.940000
0.109063 0.884709 0.940000
0.233526 0.884709 0.940000
0.353567 0.884709 0.940000
0.471174 0.884709 0.940000
0.587094 0.884709 0.940000
0.701725 0.884709 0.940000
0.815315 0.884709 0.940000
0.928033 0.884709 0.940000
1.000000 0.884709 0.940000
0.109063 1.000000 0.940000
0.233526 1.000000 0.940000
0.353567 1.000000 0.940000
0.471174 1.000000 0.940000
0.587094 1.000000 0.940000
0.701725 1.000000 0.940000
0.815315 1.000000 0.940000
0.928033 1.000000 0.940000
1.000000 1.000000 0.940000
